!!!!SEGMENT: pl-sa--252-a-vii-12_woloszko-andrzej--surge-propera.krn
!!!id: 17xx:363
!!!COM: Wołoszko, Andrzej
!!!COM-rism: pe41010086
!!!CDT:
!!!CNT:
!!!OTL: Surge Propera
!!!PDT:
!!!SMS-siglum: PL-SA
!!!SMS-shelfmark: 252/A VII 12
!!!NIFC-rismID: 1001029960
!!!system-decoration: s1[(s2,s3)]s4
**kern	**fba	**kern	**dynam	**kern	**dynam	**kern	**text
*part4	*part4	*part3	*part3	*part2	*part2	*part1	*part1
*staff4	*staff4	*staff3	*	*staff2	*	*staff1	*staff1
*I"Organo	*	*I"Violino Secundo	*	*I"Violino 1mo.	*	*I"Solo Canto	*
*I'Org.	*	*I'V-no II	*	*I'V-no 1mo	*	*I'C.	*
*clefF4	*	*clefG2	*	*clefG2	*	*clefC1	*
*k[]	*	*k[]	*	*k[]	*	*k[]	*
*M2/2	*	*M2/2	*	*M2/2	*	*M2/2	*
*met(c|)	*	*met(c|)	*	*met(c|)	*	*met(c|)	*
!LO:SIC:o=S \nSurge,:v:t='S' znajduje się przed kluczem; 'Surge,' znajduje się pod kluczem i oznaczeniem metrum	!	!LO:SIC:o=Surge,:v:t='Surge,' znajduje się pod kluczem i oznaczeniem metrum	!	!LO:SIC:o=Surge:v:t='Surge' znajduje się pod kluczem i oznaczeniem metrum	!	!LO:SIC:o=S:v:t='S' znajduje się przed kluczem i oznaczeniem metrum	!
!LO:SIC:o=Concerto. de. B.V.M. a. 410. Canto Solo. Violinis 2. \n& Baſso pro Organo \nAuthor A.R Abdz Wołoſko.:v:t=teskt w źródle nad partią Organ	!	!	!	!	!	!	!
8c\	.	8ee\	.	8gg\	.	8r	.
=1	=1	=1	=1	=1	=1	=1	=1
*2\right	*	*	*	*	*	*	*
!LO:TX:a:t=P:mixed beam:problem	!	!	!	!	!	!	!
8C/L	.	8cc\L	.	8ee\L	.	00r	.
!	!	!	!	!LO:TX:a:Bi:t= L. J. C.	!	!	!
8c\	.	16cc\L	.	16ee\L	.	.	.
.	.	16b\JJ	.	16dd\JJ	.	.	.
8G\	.	8cc\L	.	8cc\L	.	.	.
8B\J	6	16cc\L	.	16cc\L	.	.	.
.	.	16b\JJ	.	16b\JJ	.	.	.
!LO:TX:a:t=P:mixed beam:problem	!	!	!	!LO:TX:a:t=P:mixed beam:problem	!	!	!
8c\L	.	8cc\L	.	8cc\L	.	.	.
8G\	.	8g\J	.	8g/	.	.	.
!	!	!LO:TX:a:t=P:mixed beam:problem	!	!	!	!	!
8C/	.	8c/L	.	8c/	.	.	.
8c\J	.	8ee\J	.	8gg\J	.	.	.
=2	=2	=2	=2	=2	=2	=2	=2
8F\L	3	16ff\LL	.	16aa\LL	.	.	.
.	.	16gg\	.	16bb\	.	.	.
8E\	3	16ee\	.	16gg\	.	.	.
.	.	16ff\JJ	.	16aa\JJ	.	.	.
8D\	3	16dd\LL	.	16ff\LL	.	.	.
.	.	16ff\	.	16aa\	.	.	.
8BB\J	6	16ee\	.	16gg\	.	.	.
.	.	16dd\JJ	.	16ff\JJ	.	.	.
8C\L	.	8cc\	.	8ee\	.	.	.
8D\	.	8r	.	8r	.	.	.
8E\	6	8r	.	8r	.	.	.
8C\J	.	8ee\	.	8gg\	.	.	.
=3	=3	=3	=3	=3	=3	=3	=3
8F\L	.	16ff\LL	.	16aa\LL	.	.	.
.	.	16gg\	.	16bb\	.	.	.
8E\	6	16ee\	.	16gg\	.	.	.
.	.	16gg\JJ	.	16bb\JJ	.	.	.
8F\	.	16ff\LL	.	16aa\LL	.	.	.
.	.	16gg\	.	16bb\	.	.	.
8D\J	.	16dd\	.	16ff\	.	.	.
.	.	16ff\JJ	.	16aa\JJ	.	.	.
8E\L	.	16ee\LL	.	16gg\LL	.	.	.
.	.	16ff\	.	16aa\	.	.	.
8D\	6	16dd\	.	16ff\	.	.	.
.	.	16ff\JJ	.	16aa\JJ	.	.	.
8E\	.	16ee\LL	.	16gg\LL	.	.	.
.	.	16ff\	.	16aa\	.	.	.
8C\J	.	16cc\	.	16ee\	.	.	.
.	.	16ee\JJ	.	16gg\JJ	.	.	.
!	!	!	!	!LO:LB:g=original	!	!	!
=4	=4	=4	=4	=4	=4	=4	=4
8D/L	n	16dd\LL	.	16ff\LL	.	.	.
.	.	16cc\	.	16ee\	.	.	.
8C/	.	16dd\	.	16ff\	.	.	.
.	.	16ee\JJ	.	16aa\JJ	.	.	.
8BB/	6	16dd\LL	.	16ff\LL	.	.	.
.	.	16ff\	.	16aa\	.	.	.
8GG/J	.	16ee\	.	16gg\	.	.	.
.	.	16dd\JJ	.	16ff\JJ	.	.	.
!	!	!LO:LB:g=original	!	!	!	!	!
8C\L	.	8cc\	.	8ee\	.	.	.
8D\	.	8r	.	8r	.	.	.
8E\	6	8r	.	8r	.	.	.
8G\J	.	8b/	.	8dd\	.	.	.
=5	=5	=5	=5	=5	=5	=5	=5
8c\L	.	16cc\LL	.	16ee\LL	.	00r	.
.	.	16dd\JJ	.	16ff\	.	.	.
8B\	6	16b\LL	.	16dd\	.	.	.
.	.	16dd\JJ	.	16ff\JJ	.	.	.
8c\	.	16cc\LL	.	16ee\LL	.	.	.
.	.	16dd\	.	16ff\	.	.	.
8A\J	6	16a\	.	16cc\	.	.	.
.	.	16cc\JJ	.	16ee\JJ	.	.	.
!LO:LB:g=original	!	!	!	!	!	!	!
8B\L	6	(<16b/LL	.	16dd\LL	.	.	.
.	.	16cc/	.	16ee\	.	.	.
8A\	.	16a/	.	16cc\	.	.	.
.	.	16cc/JJ)	.	16ee\JJ	.	.	.
8B\	6	(<16b/LL	.	16dd\LL	.	.	.
.	.	16cc/	.	16ee\	.	.	.
8G\J	.	16g/	.	16b\	.	.	.
.	.	16b/JJ)	.	16dd\JJ	.	.	.
=6	=6	=6	=6	=6	=6	=6	=6
8A\L	.	16a/LL	.	16cc\LL	.	.	.
.	.	(<16g/	.	16b\	.	.	.
8G\	.	16a/	.	16cc\	.	.	.
.	.	16b/JJ)	.	16dd\JJ	.	.	.
8F#X\	6	16a/LL	.	16cc\LL	.	.	.
.	.	(<16cc/	.	16ee\	.	.	.
8D\J	#	16b/	.	16dd\	.	.	.
.	.	16a/JJ	.	16cc\JJ	.	.	.
!LO:TX:a:t=P:mixed beam:problem	!	!	!	!	!	!	!
8G\L	.	4g/)	.	4b/	.	.	.
8D\	#	.	.	.	.	.	.
8GG/	.	8r	.	8r	.	.	.
8D\J	#	8f#X/	.	8a/	.	.	.
=7	=7	=7	=7	=7	=7	=7	=7
8G\L	.	16g/LL	.	16b\LL	.	.	.
.	.	16a/	.	16cc\	.	.	.
8F#X\	6	16f#X/	.	16a\	.	.	.
.	.	16a/JJ	.	16cc\JJ	.	.	.
8G\	.	16g/LL	.	16b\LL	.	.	.
.	.	16a/	.	16cc\	.	.	.
8F#X\J	6	16f#X/	.	16a\	.	.	.
.	.	16a/JJ	.	16cc\JJ	.	.	.
!	!	!	!	!LO:LB:g=original	!	!	!
8G\L	.	16g/LL	.	16b\LL	.	.	.
.	.	16f#X/	.	16a\	.	.	.
8E\	.	16g/	.	16b\	.	.	.
.	.	16a/JJ	.	16cc\JJ	.	.	.
!	!	!LO:LB:g=original	!	!	!	!	!
8F#X\	6	8b/L	.	8dd\L	.	.	.
8D\J	#	8f#X/J	.	8a\J	.	.	.
=8	=8	=8	=8	=8	=8	=8	=8
8G\L	.	16g/LL	.	16b\LL	.	.	.
.	.	16a/	.	16cc\	.	.	.
8F#X\	6	16f#X/	.	16a\	.	.	.
.	.	16a/JJ	.	16cc\JJ	.	.	.
8G\	.	16g/LL	.	16b\LL	.	.	.
.	.	16a/	.	16cc\	.	.	.
8F#X\J	6	16f#X/	.	16a\	.	.	.
.	.	16a/JJ	.	16cc\JJ	.	.	.
8G\L	.	16g/LL	.	16b\LL	.	.	.
.	.	16f#X/	.	16a\	.	.	.
8E\	.	16g/	.	16b\	.	.	.
.	.	16a/JJ	.	16cc\JJ	.	.	.
8F#X\	6	8b/L	.	8dd\L	.	.	.
8D\J	.	8f#X/J	.	8a\J	.	.	.
=9	=9	=9	=9	=9	=9	=9	=9
!LO:TX:a:t=P:mixed beam:problem	!	!	!	!	!	!	!
8G\L	.	4g/	.	8b/L	.	00r	.
8BB/	6	.	.	16a/L	.	.	.
.	.	.	.	16g/JJ	.	.	.
8C/	5	8d/L	.	4f#X/	.	.	.
8D/J	#	8f#X/J	.	.	.	.	.
8G\L	.	4g/	.	4g/	.	.	.
8F\	.	.	.	.	.	.	.
8E\	6	8r	.	8r	.	.	.
8D\J	6	8g/	.	8g/	.	.	.
=10	=10	=10	=10	=10	=10	=10	=10
!LO:TX:a:t=P:mixed beam:problem	!	!	!	!	!	!	!
8C/L	.	16cc\LL	.	16cc\LL	.	.	.
.	.	16b\	.	16b\	.	.	.
8c\J	.	16cc\	.	16cc\	.	.	.
.	.	16b\JJ	.	16dd\JJ	.	.	.
4r	.	8cc\L	.	8ee\L	.	.	.
.	.	16b\L	.	16dd\L	.	.	.
.	.	16a\JJ	.	16cc\JJ	.	.	.
!LO:LB:g=original	!	!	!	!	!	!	!
8G\L	.	16b\LL	.	16dd\LL	.	.	.
.	.	16a\	.	16cc\	.	.	.
8A\	.	16b\	.	16dd\	.	.	.
.	.	16cc\JJ	.	16ee\JJ	.	.	.
8B\	6	8b/L	.	8dd\L	.	.	.
8G\J	.	8g/J	.	16ee\L	.	.	.
.	.	.	.	16g\JJ	.	.	.
=11	=11	=11	=11	=11	=11	=11	=11
!LO:TX:a:t=P:mixed beam:problem	!	!	!	!	!	!	!
8c\L	.	8cc\L	.	8ee\L	.	.	.
8C/	.	16ff\L	.	16aa\L	.	.	.
.	.	16ee\JJ	.	16gg\JJ	.	.	.
8A\	.	16dd\LL	.	16ff\LL	.	.	.
.	.	16cc\	.	16ee\	.	.	.
8F\J	.	16b\	.	16dd\	.	.	.
.	.	16a\JJ	.	16cc\JJ	.	.	.
!	!	!	!	!LO:LB:g=original	!	!	!
8G\L	.	16g/LL	.	(>16b\LL	.	.	.
.	.	16a/JJ	.	16cc\	.	.	.
!	!	!LO:LB:g=original	!	!	!	!	!
8A\	.	16g/LL	.	16b\)	.	.	.
.	.	16a/JJ	.	16cc\JJ	.	.	.
8B\	6	8b/	.	8dd\	.	.	.
8G\J	.	8r	.	8r	.	.	.
=12	=12	=12	=12	=12	=12	=12	=12
4c\	.	(>16cc\LL	.	16ee\LL	.	.	.
.	.	16b\JJ)	.	16dd\	.	.	.
.	.	(>16cc\LL	.	16ee\	.	.	.
.	.	16b\JJ)	.	16dd\JJ	.	.	.
4r	.	(>16cc\LL	.	16ee\LL	.	.	.
.	.	16b\JJ)	.	16dd\	.	.	.
.	.	(>16cc\LL	.	16ee\	.	.	.
.	.	16b\JJ)	.	16dd\JJ	.	.	.
8G\L	.	8g/L	.	8b\L	.	.	.
8A\J	.	16g/L	.	16b\L	.	.	.
.	.	16a/JJ	.	16cc\JJ	.	.	.
4B\	6	4b/	.	8dd\L	.	.	.
.	.	.	.	8gg\J	.	.	.
=13	=13	=13	=13	=13	=13	=13	=13
8c\L	.	8cc/L	.	8ee\L	.	2r	.
8E\	6	16b/L	.	16dd\L	.	.	.
.	.	16a/JJ	.	16cc\JJ	.	.	.
8F\	6 5	8g/L	.	8b/L	.	.	.
8G\J	.	16f/L	.	16a/L	.	.	.
.	.	16e/JJ	.	16g/JJ	.	.	.
4C/	.	8cc\	.	8cc\	.	4r	.
.	.	8r	.	8r	.	.	.
4r	.	8r	.	8r	.	8r	.
.	.	8g/	.	8g/	.	8g\	ſur-
=14	=14	=14	=14	=14	=14	=14	=14
!LO:TX:b:Bi:t=Canto	!	!	!	!	!	!	!
!LO:TX:a:t=P:mixed beam:problem	!	!	!	!	!	!	!
!	!	!	!LO:DY:b	!	!LO:DY:b	!	!
8C/L	.	4cc\	p	4cc\	p	8cc\	.
8c\	.	.	.	.	.	8dd\	.
8B\	6	4b\	.	8dd\L	.	(>16cc\LL	-ge
.	.	.	.	.	.	16dd\JJ)	.
8G\J	.	.	.	16cc\L	.	4.ee\	ſur-
.	.	.	.	16dd\JJ	.	.	.
4.c\	.	4.cc\	.	4.ee\	.	.	.
.	.	.	.	.	.	4ff\	-ge
8B\	6	8dd\	.	8ff\	.	.	.
=15	=15	=15	=15	=15	=15	=15	=15
!LO:TX:a:t=P:mixed beam:problem	!	!	!	!	!	!	!
8c\L	.	8ee\L	.	8gg\L	.	8gg\L	ſur-
8C/	.	16ff\L	.	16aa\L	.	16aa\L	.
.	.	16ee\JJ	.	16gg\JJ	.	16gg\JJ	.
8A\	6	8dd\L	.	8ff\L	.	8ff\L	-ge
8F#X\J	.	8cc\J	.	8ee\J	.	8ee\J	.
4G\	.	4b/	.	4dd\	.	4.dd\	pro-
4F#X\	6	8b/L	.	8dd\L	.	.	.
.	.	8a/J	.	8cc\J	.	16cc\	-pe-
.	.	.	.	.	.	16cc\	-ra
!	!	!	!	!LO:LB:g=original	!	!	!
=16	=16	=16	=16	=16	=16	=16	=16
4G\	.	4g/	.	4b\	.	4b\	a-
!	!	!LO:LB:g=original	!	!	!	!	!
4r	.	8g/L	.	8b\L	.	8b\	-mi-
.	.	8a/J	.	8cc\J	.	8cc\	-ca
2r	.	8b\L	.	8dd\L	.	8dd\L	me-
.	.	8cc\J	.	8ee\	.	8ee\	.
.	.	8g/L	.	8b\	.	8b\	.
.	.	8f#X/J	.	8a\J	.	8a\J	.
!LO:LB:g=original	!	!	!	!	!	!LO:LB:g=original	!
=17	=17	=17	=17	=17	=17	=17	=17
8G\L	.	4g/	.	4g/	.	4g\	-a
8A\	.	.	.	.	.	.	.
8B\	6	4r	.	4r	.	4r	.
8G\J	.	.	.	.	.	.	.
!LO:TX:a:t=P:w źródle dodatkowa kreska taktowa w środku taktu:problem	!	!	!	!	!	!	!
!LO:TX:a:t=P:mixed beam:problem	!	!	!	!	!	!	!
!	!	!	!	!	!	!LO:SIC:s=4cc:v	!
8C/L	.	4cc\	.	4cc\	.	4b\	ſur-
8c\	.	.	.	.	.	.	.
8B\	6	4b\	.	8dd\L	.	8dd\	-ge
8G\J	.	.	.	16cc\L	.	(>16cc\LL	.
.	.	.	.	16dd\JJ	.	16dd\JJ)	.
=18	=18	=18	=18	=18	=18	=18	=18
!LO:TX:a:t=P:mixed beam:problem	!	!	!	!	!	!	!
16c\LL	.	4cc\	.	4ee\	.	4ee\	ſur-
16B\	.	.	.	.	.	.	.
16c\	.	.	.	.	.	.	.
16C/JJ	.	.	.	.	.	.	.
16G\LL	.	4dd\	.	4ff\	.	4ff\	-ge
16A\	.	.	.	.	.	.	.
16B\	6	.	.	.	.	.	.
16G\JJ	.	.	.	.	.	.	.
!LO:TX:a:t=P:mixed beam:problem	!	!	!	!	!	!	!
8c\L	.	8ee\L	.	8gg\L	.	8gg\L	ſur-
8C/	.	16ff\L	.	16aa\L	.	16aa\L	.
.	.	16ee\JJ	.	16gg\JJ	.	16gg\JJ	.
8A\	.	8dd\L	.	8ff\L	.	8ff\	.
8F\J	.	8cc\J	.	8ee\J	.	8dd\	-ge
=19	=19	=19	=19	=19	=19	=19	=19
2G\	.	4b/	.	4dd\	.	4dd\	Co-
.	.	16b\LL	.	16dd\LL	.	16dd\LL	-lum-
.	.	16cc\	.	16ee\	.	16ee\JJ	.
.	.	16b\	.	16dd\	.	(>16dd\LL	-ba
.	.	16a\JJ	.	16cc\JJ	.	16cc\JJ)	.
4G\	4 2	4g/	.	4b\	.	4b\	me-
4F#X\	.	4a/	.	4cc\	.	4cc\	-a
=20	=20	=20	=20	=20	=20	=20	=20
4G\	.	4b/	.	4dd\	.	4dd\	ve-
8B\L	.	8g/L	.	8b/L	.	8b\L	.
8d\J	.	8f#X/J	.	8a/J	.	8a\J	.
4G\	.	4g/	.	4g/	.	4g\	-ni
4r	.	8dd\L	.	8dd\L	.	8dd\L	for-
.	.	8cc\J	.	8ee\J	.	8ee\J	.
=21	=21	=21	=21	=21	=21	=21	=21
4A\	6	(>8dd\L	.	(>8ff\L	.	8ff\L	-mo-
.	.	16ee\L	.	16gg\L)	.	16gg\L	.
.	.	16dd\JJ)	.	16ff\JJ	.	16ff\JJ	.
4G\	6	(>8cc\L	.	(>8ee\	.	8ee\L	.
.	.	16dd\L	.	16ff\LL)	.	16ff\L	.
.	.	16cc\JJ)	.	16ee\JJ	.	16ee\JJ	.
4A\	6	(>8dd\L	.	(>8ff\L	.	8ff\L	.
.	.	16ee\L	.	16gg\L)	.	16gg\L	.
.	.	16dd\JJ)	.	16ff\JJ	.	16ff\JJ	.
!	!	!	!	!	!	!LO:LB:g=original	!
4G\	6	(>8cc\L	.	(>8ee\	.	8ee\L	.
.	.	16dd\L	.	16ff\LL)	.	16ff\L	.
.	.	16cc\JJ)	.	16ee\JJ	.	16ee\JJ	.
!	!	!LO:LB:g=original	!	!LO:LB:g=original	!	!	!
=22	=22	=22	=22	=22	=22	=22	=22
4A\	6	(>8dd\L	.	(>8ff\L	.	8ff\L	.
.	.	16ee\L	.	16gg\L)	.	16gg\L	.
.	.	16dd\JJ)	.	16ff\JJ	.	16ff\JJ	.
4G\	6	(>8cc\L	.	(>8ee\	.	8ee\L	.
.	.	16dd\L	.	16ff\LL)	.	16ff\L	.
.	.	16cc\JJ)	.	16ee\JJ	.	16ee\JJ	.
4F\	6	(>8b\L	.	(>8dd\L	.	8dd\L	.
.	.	16cc\L	.	16ee\L)	.	16ee\L	.
.	.	16b\JJ)	.	16dd\JJ	.	16dd\JJ	.
4E\	6	(<8a/L	.	(>8cc\	.	8cc\L	.
.	.	16b/L	.	16dd\LL)	.	16dd\L	.
.	.	16a/JJ)	.	16cc\JJ	.	16cc\JJ	.
=23	=23	=23	=23	=23	=23	=23	=23
*	*^	*	*	*	*	*	*
!LO:TX:a:t=P:mixed beam:problem	!	!	!	!	!	!	!	!
8G\L	.	.	8g/L	.	8b\L	.	8b\	.
8F\	.	.	8cc/J	.	8cc\J	.	8cc\	-ſa
8G\	.	.	4b/	.	4dd\	.	4dd\	ve-
8GG/J	4	3	.	.	.	.	.	.
!LO:LB:g=original	!	!	!	!	!	!	!	!
4C/	.	.	4cc\	.	4cc\	.	4cc\	-ni
4r	.	.	8dd\L	.	8dd\L	.	8dd\L	for-
.	.	.	8cc\J	.	8ee\J	.	8ee\J	.
*	*v	*v	*	*	*	*	*	*
=24	=24	=24	=24	=24	=24	=24	=24
4A\	6	(>8dd\L	.	(>8ff\L	.	8ff\L	-mo-
.	.	16ee\L	.	16gg\L)	.	16gg\L	.
.	.	16dd\JJ)	.	16ff\JJ	.	16ff\JJ	.
4G\	6	(>8cc\L	.	(>8ee\L	.	8ee\L	.
.	.	16dd\L	.	16ff\L)	.	16ff\L	.
.	.	16cc\JJ)	.	16ee\JJ	.	16ee\JJ	.
4A\	6	(>8dd\L	.	(>8ff\L	.	8ff\L	.
.	.	16ee\L	.	16gg\L)	.	16gg\L	.
.	.	16dd\JJ)	.	16ff\JJ	.	16ff\JJ	.
4G\	6	(>8cc\L	.	(>8ee\L	.	8ee\L	.
.	.	16dd\L	.	16ff\L)	.	16ff\L	.
.	.	16cc\JJ)	.	16ee\JJ	.	16ee\JJ	.
=25	=25	=25	=25	=25	=25	=25	=25
4A\	6	(>8dd\L	.	(>8ff\L	.	8ff\L	.
.	.	16ee\L	.	16gg\L)	.	16gg\L	.
.	.	16dd\JJ)	.	16ff\JJ	.	16ff\JJ	.
4G\	6	(>8cc\L	.	(>8ee\L	.	8ee\L	.
.	.	16dd\L	.	16ff\L)	.	16ff\L	.
.	.	16cc\JJ)	.	16ee\JJ	.	16ee\JJ	.
4F\	6	(>8b\L	.	(>8dd\L	.	8dd\L	.
.	.	16cc\L	.	16ee\L)	.	16ee\L	.
.	.	16b\JJ)	.	16dd\JJ	.	16dd\JJ	.
!	!	!	!	!	!	!LO:LB:g=original	!
4E\	6	(>8a\L	.	(>8cc\L	.	8cc\L	-ſa
.	.	16b\L	.	16dd\L)	.	16dd\L	.
.	.	16a\JJ)	.	16cc\JJ	.	16cc\JJ	.
=26	=26	=26	=26	=26	=26	=26	=26
*	*^	*	*	*	*	*	*
!LO:TX:a:t=P:mixed beam:problem	!	!	!	!	!	!	!	!
8G\L	.	.	8g/L	.	8b\L	.	8b\	me-
8F\	.	.	8cc/J	.	8cc\J	.	8cc\	-a
8G\	.	.	4b/	.	8dd\L	.	4dd\	ve-
!	!	!	!LO:LB:g=original	!	!	!	!	!
8GG/J	4	3	.	.	16ee\L	.	.	.
.	.	.	.	.	16dd\JJ	.	.	.
4.C/	.	.	4cc\	.	4.cc\	.	4cc\	-ni
.	.	.	4r	.	.	.	4r	.
8BB/	6	.	.	.	8gg\	.	.	.
!	!	!	!	!	!LO:LB:g=original	!	!	!
*	*v	*v	*	*	*	*	*	*
=27	=27	=27	=27	=27	=27	=27	=27
8C\L	.	8.cc\L	.	8.ee\L	.	00r	.
8D\	.	.	.	.	.	.	.
.	.	16b\Jk	.	16dd\Jk	.	.	.
8E\	6	8cc\L	.	8cc\L	.	.	.
8F\J	.	16b\L	.	16dd\L	.	.	.
.	.	16cc\JJ	.	16ee\JJ	.	.	.
8G\L	.	8g/L	.	8.b/L	.	.	.
8A\	.	8a/	.	.	.	.	.
.	.	.	.	16a/K	.	.	.
8B\	6	8b/	.	8g/	.	.	.
8G\J	.	8cc/J	.	8cc/J	.	.	.
=28	=28	=28	=28	=28	=28	=28	=28
8GG/L	.	8dd\L	.	8dd\L	.	.	.
8C/	.	16dd\L	.	16dd\L	.	.	.
.	.	16cc\JJ	.	16ee\JJ	.	.	.
8D/	.	(>16dd\LL	.	16ff\LL	.	.	.
.	.	16ee\	.	16gg\	.	.	.
8C/J	.	16cc\	.	16ee\	.	.	.
.	.	16dd\JJ)	.	16ff\JJ	.	.	.
8GG/L	.	4b/	.	4dd\	.	.	.
8AA/	.	.	.	.	.	.	.
8BB/	.	4r	.	4r	.	.	.
8GG/J	.	.	.	.	.	.	.
=29	=29	=29	=29	=29	=29	=29	=29
!	!	!	!LO:DY:b	!	!LO:DY:b	!	!
8C\L	.	8ee\L	f	16gg\LL	f	.	.
.	.	.	.	16cc\	.	.	.
8D\	.	8ee\	.	16gg\	.	.	.
.	.	.	.	16cc\JJ	.	.	.
8E\J	6	8ee\	.	16gg\LL	.	.	.
.	.	.	.	16cc\	.	.	.
8r	.	8ee\J	.	16gg\	.	.	.
.	.	.	.	16cc\JJ	.	.	.
!LO:TX:a:t=P:mixed beam:problem	!	!	!	!	!	!	!
8F\L	.	8ff\L	.	16aa\LL	.	.	.
.	.	.	.	16cc\	.	.	.
8AA/	.	8ff\	.	16aa\	.	.	.
.	.	.	.	16cc\JJ	.	.	.
8F\J	.	8ff\	.	16aa\LL	.	.	.
.	.	.	.	16cc\	.	.	.
8r	.	8ff\J	.	16aa\	.	.	.
.	.	.	.	16cc\JJ	.	.	.
!LO:LB:g=original	!	!	!	!	!	!	!
=30	=30	=30	=30	=30	=30	=30	=30
8C\L	.	8ee\L	.	16gg\LL	.	.	.
.	.	.	.	16cc\	.	.	.
8D\	.	8ee\	.	16gg\	.	.	.
.	.	.	.	16cc\JJ	.	.	.
8E\J	6	8ee\	.	16gg\LL	.	.	.
.	.	.	.	16cc\	.	.	.
8r	.	8ee\J	.	16gg\	.	.	.
.	.	.	.	16cc\JJ	.	.	.
!LO:TX:a:t=P:mixed beam:problem	!	!	!	!	!	!	!
8F\L	.	8ff\L	.	16aa\LL	.	.	.
.	.	.	.	16cc\	.	.	.
8AA/	.	8ff\	.	16aa\	.	.	.
.	.	.	.	16cc\JJ	.	.	.
8F\J	.	8ff\	.	16aa\LL	.	.	.
.	.	.	.	16cc\	.	.	.
8r	.	8ff\J	.	16aa\	.	.	.
.	.	.	.	16cc\JJ	.	.	.
!	!	!	!	!LO:LB:g=original	!	!	!
=31	=31	=31	=31	=31	=31	=31	=31
8D\L	#	8ff#X\L	.	16aa\LL	.	00r	.
.	.	.	.	16dd\	.	.	.
8E\	.	8ff#\	.	16aa\	.	.	.
.	.	.	.	16dd\JJ	.	.	.
8F#X\J	6	8ff#\	.	16aa\LL	.	.	.
.	.	.	.	16dd\	.	.	.
8r	.	8ff#\J	.	16aa\	.	.	.
.	.	.	.	16dd\JJ	.	.	.
!LO:TX:a:t=P:mixed beam:problem	!	!	!	!	!	!	!
8G\L	.	8gg\L	.	16bb\LL	.	.	.
.	.	.	.	16dd\	.	.	.
8BB/	6	8gg\	.	16bb\	.	.	.
.	.	.	.	16dd\JJ	.	.	.
8G\J	.	8gg\	.	16bb\LL	.	.	.
.	.	.	.	16dd\	.	.	.
8r	.	8gg\J	.	16bb\	.	.	.
.	.	.	.	16dd\JJ	.	.	.
!	!	!LO:LB:g=original	!	!	!	!	!
=32	=32	=32	=32	=32	=32	=32	=32
8D\L	#	8ff#X\L	.	16aa\LL	.	.	.
.	.	.	.	16dd\	.	.	.
8E\	.	8ff#\	.	16aa\	.	.	.
.	.	.	.	16dd\JJ	.	.	.
!LO:SIC:s=8F#:v	!	!	!	!	!	!	!
8F\J	6 #	8ff#\	.	16aa\LL	.	.	.
.	.	.	.	16dd\	.	.	.
8r	.	8ff#\J	.	16aa\	.	.	.
.	.	.	.	16dd\JJ	.	.	.
!LO:TX:a:t=P:mixed beam:problem	!	!	!	!	!	!	!
8G\L	.	8gg\L	.	16bb\LL	.	.	.
.	.	.	.	16dd\	.	.	.
8BB/	6	8gg\	.	16bb\	.	.	.
.	.	.	.	16dd\JJ	.	.	.
8G\J	.	8gg\	.	16bb\LL	.	.	.
.	.	.	.	16dd\	.	.	.
8r	.	8gg\J	.	16bb\	.	.	.
.	.	.	.	16dd\JJ	.	.	.
=33	=33	=33	=33	=33	=33	=33	=33
8A\L	n	8aa\L	.	8ccc\L	.	.	.
8G\	.	8gg\	.	8bb\	.	.	.
!	!	!LO:SIC:s=8ff#:v	!	!	!	!	!
8F#X\	.	8ff\	.	8aa\	.	.	.
8E\J	.	8ee\J	.	8gg\J	.	.	.
!LO:TX:a:t=P: '#' w cyfrowaniu obok nuty:problem	!	!	!	!	!	!	!
8D\L	#	16dd\LL	.	16ff#X\LL	.	.	.
.	.	16ee\JJ	.	16gg\	.	.	.
8E\	.	16dd\LL	.	16ff#\	.	.	.
.	.	16ee\JJ	.	16gg\JJ	.	.	.
8F#\	6	8ff#X\L	.	8aa\L	.	.	.
!LO:SIC:s=8D:v	!	!	!	!	!	!	!
8D#J	#	8dd\J	.	8dd\J	.	.	.
=34	=34	=34	=34	=34	=34	=34	=34
8D\L	.	16dd\LL	.	16ff#X\LL	.	.	.
.	.	16ee\	.	16gg\	.	.	.
8E\	.	16dd\	.	16ff#\	.	.	.
.	.	16ee\JJ	.	16gg\JJ	.	.	.
8F#X\	6	8ff#X\L	.	8aa\L	.	.	.
8D\J	.	8dd\J	.	8dd\J	.	.	.
!LO:LB:g=original	!	!	!	!LO:LB:g=original	!	!	!
4G\	.	4gg\	.	8bb\L	.	.	.
.	.	.	.	16aa\L	.	.	.
.	.	.	.	16gg\JJ	.	.	.
4D\	#	8dd\L	.	4ff#X\	.	.	.
.	.	8cc\J	.	.	.	.	.
=35	=35	=35	=35	=35	=35	=35	=35
8G\L	.	4b/	.	4gg\	.	00r	.
8Fn\	6	.	.	.	.	.	.
8E\	6	4r	.	4r	.	.	.
8D\J	6	.	.	.	.	.	.
8C/L	.	8ee\L	.	16gg\LL	.	.	.
.	.	.	.	16cc\	.	.	.
8C/	.	8ee\	.	16gg\	.	.	.
.	.	.	.	16cc\JJ	.	.	.
8C/	.	8ee\	.	16gg\LL	.	.	.
.	.	.	.	16cc\	.	.	.
8C/J	.	8ee\J	.	16gg\	.	.	.
.	.	.	.	16cc\JJ	.	.	.
=36	=36	=36	=36	=36	=36	=36	=36
!LO:TX:a:t=P:mixed beam:problem	!	!	!	!	!	!	!
8F\L	.	8ff\L	.	16aa\LL	.	.	.
.	.	.	.	16cc\	.	.	.
8AA/	6	8ff\	.	16aa\	.	.	.
.	.	.	.	16cc\JJ	.	.	.
8F\J	.	8ff\	.	16aa\LL	.	.	.
.	.	.	.	16cc\	.	.	.
8r	.	8ff\J	.	16aa\	.	.	.
.	.	.	.	16cc\JJ	.	.	.
8C/L	.	8ee\L	.	16gg\LL	.	.	.
.	.	.	.	16cc\	.	.	.
8D/	.	8ee\	.	16gg\	.	.	.
.	.	.	.	16cc\JJ	.	.	.
8E/J	6	8ee\	.	16gg\LL	.	.	.
.	.	.	.	16cc\	.	.	.
8r	.	8ee\J	.	16gg\	.	.	.
.	.	.	.	16cc\JJ	.	.	.
=37	=37	=37	=37	=37	=37	=37	=37
2r	.	8ee\L	.	8aa\L	.	.	.
.	.	16ff\L	.	16aa\L	.	.	.
.	.	16ee\JJ	.	16gg\JJ	.	.	.
.	.	8dd\L	.	8ff\L	.	.	.
.	.	16dd\L	.	16ff\L	.	.	.
.	.	16cc\JJ	.	16ee\JJ	.	.	.
!	!	!LO:LB:g=original	!	!	!	!	!
8G\L	.	4b/	.	4dd\	.	.	.
8A\	.	.	.	.	.	.	.
8B\	6	4r	.	4gg\	.	.	.
8G\J	.	.	.	.	.	.	.
=38	=38	=38	=38	=38	=38	=38	=38
*	*^	*	*	*	*	*	*
!LO:TX:a:t=P:mixed beam:problem	!	!	!	!	!	!	!	!
8c\L	.	.	4cc\	.	8ee\L	.	.	.
8E\	.	.	.	.	16dd\L	.	.	.
.	.	.	.	.	16cc\JJ	.	.	.
8G\	.	.	4b\	.	8b\L	.	.	.
8GG/J	4	3	.	.	16cc\L	.	.	.
.	.	.	.	.	16dd\JJ	.	.	.
4C/	.	.	4cc\	.	4cc\	.	.	.
4CC/	.	.	4c/	.	4c/	.	.	.
!LO:PB:g=original	!	!	!	!	!	!	!	!
*	*v	*v	*	*	*	*	*	*
=39	=39	=39	=39	=39	=39	=39	=39
!	!	!	!	!LO:TX:a:B:t=3	!	!	!
8A\L	5	0r	.	0r	.	8ee\	ſur-
8B\	.	.	.	.	.	8ee\	-ge
8c\	.	.	.	.	.	8ee\	ſur-
8A\J	.	.	.	.	.	8ee\	-ge
!LO:TX:a:t=P:mixed beam:problem	!	!	!	!	!	!	!
8A\L	.	.	.	.	.	8.ee\	pro-
8G#X\	6	.	.	.	.	.	.
.	.	.	.	.	.	16ee\	-pe-
8A\	.	.	.	.	.	4ee\	-ra
8AA/J	6	.	.	.	.	.	.
=40	=40	=40	=40	=40	=40	=40	=40
4D/	.	.	.	.	.	4ff\	a-
8C/L	6	.	.	.	.	(>16ee\LL	-mi-
.	.	.	.	.	.	16dd\JJ)	.
8BB/J	6	.	.	.	.	(>16cc\LL	-ca
.	.	.	.	.	.	16b\JJ)	.
!LO:TX:a:t=P:mixed beam:problem	!	!	!	!	!	!	!
8AA/L	.	.	.	.	.	(>8cc\L	me-
8GG#X/	6	.	.	.	.	8b\J)	.
8AA/	.	.	.	.	.	4a\	-a
8E\J	#	.	.	.	.	.	.
=41	=41	=41	=41	=41	=41	=41	=41
4D/	.	1r	.	1r	.	4ff\	Co-
8C/L	6	.	.	.	.	16ee\LL	-lum-
.	.	.	.	.	.	16dd\JJ	.
8BB/J	6	.	.	.	.	16cc\LL	-ba
.	.	.	.	.	.	16b\JJ	.
!	!	!	!	!	!	!LO:SIC:t=custos 16b:v	!
!	!	!	!	!	!	!LO:LB:g=original	!
!LO:TX:a:t=P:mixed beam:problem	!	!	!	!	!	!	!
8AA/L	.	.	.	.	.	8cc\L	me-
8GG#X/	6	.	.	.	.	8b\J	.
8AA/	.	.	.	.	.	8a\	-a
8E\J	#	.	.	.	.	8b\	et
!	!	!	!	!LO:LB:g=original	!	!	!
=42	=42	=42	=42	=42	=42	=42	=42
!	!	!LO:TX:b:Bi:t=Presto	!	!	!	!	!
8A\L	n	(<16a/LL	.	(>16cc\LL	.	16cc\LL	ve-
.	.	16b/)	.	16dd\	.	16dd\	.
8G#X\	6	(<16g#X/	.	16b\)	.	16b\	.
.	.	16b/JJ)	.	16dd\JJ	.	16dd\JJ	.
8A\	.	(<16a/LL	.	(>16cc\LL	.	16cc\LL	.
.	.	16b/)	.	16dd\	.	16dd\	.
8E\J	#	(<16g#X/	.	16b\)	.	16b\	.
.	.	16b/JJ)	.	16dd\JJ	.	16dd\JJ	.
8A\L	n	(<16a/LL	.	(>16cc\LL	.	16cc\LL	.
.	.	16b/)JJ	.	16dd\	.	16dd\	.
8G#\	6	(<16g#X/LL	.	16b\)	.	16b\	.
.	.	16b/JJ)	.	16dd\JJ	.	16dd\JJ	.
8A\	.	(<16a/LL	.	(>16cc\LL	.	16cc\LL	.
.	.	16b/)	.	16dd\	.	16dd\	.
8E\J	#	(<16g#X/	.	16b\)	.	16b\	.
.	.	16b/JJ)	.	16dd\JJ	.	16dd\JJ	.
=43	=43	=43	=43	=43	=43	=43	=43
*	*^	*	*	*	*	*	*
8A\L	n	.	8cc/L	.	8cc\L	.	8cc\	.
8D\J	.	.	16b/L	.	16dd\L	.	8dd\	-ni
.	.	.	16a/JJ	.	16ee\JJ	.	.	.
4E\	.	.	4g#X/	.	8b/L	.	8b\L	ve-
.	.	.	.	.	16a/L	.	16a\L	.
.	.	.	.	.	16b/JJ	.	16b\JJ	.
4AA/	# 4	# 3	4a/	.	4a/	.	4a\	.
4E\	#	.	4g#X/	.	4b/	.	4b\	-ni
*	*v	*v	*	*	*	*	*	*
=44	=44	=44	=44	=44	=44	=44	=44
!	!	!	!	!LO:TX:b:Bi:t=Presto	!	!	!
!	!	!	!	!LO:TX:b:Bi:t=Verte Cito:dur=2w:ext=s:problem:text with extention lines	!	!	!
8A\L	n	(<16a/LL	.	(>16cc\LL	.	16cc\LL	ve-
.	.	16b/	.	16dd\	.	16dd\	.
8G#X\	6	16g#X/	.	16b\)	.	16b\	.
.	.	16b/JJ)	.	16dd\JJ	.	16dd\JJ	.
8A\	.	(<16a/LL	.	16cc\LL	.	16cc\LL	.
.	.	16b/	.	16dd\	.	16dd\	.
8E\J	#	16g#X/	.	16b\	.	16b\	.
.	.	16b/JJ)	.	16dd\JJ	.	16dd\JJ	.
!LO:LB:g=original	!	!LO:LB:g=original	!	!	!	!	!
8A\L	.	(16a/LL	.	16cc\LL	.	16cc\LL	.
.	.	16b/	.	16dd\	.	16dd\	.
8G#X\J	6	16g#X/	.	16b\	.	16b\	.
.	.	16b/JJ)	.	16dd\JJ	.	16dd\JJ	.
8A\L	.	(16a/LL	.	16cc\LL	.	16cc\LL	.
!	!	!	!	!	!	!LO:LB:g=original	!
.	.	16b/	.	16dd\	.	16dd\	.
8E\J	.	16g#X/	.	16b\	.	16b\	.
.	.	16b/JJ)	.	16dd\JJ	.	16dd\JJ	.
=45	=45	=45	=45	=45	=45	=45	=45
*	*^	*	*	*	*	*	*
8A\L	.	.	8cc/L	.	8cc\L	.	8cc\	.
8D\J	.	.	16b/L	.	16dd\L	.	8dd\	-ni
.	.	.	16a/JJ	.	16ee\JJ	.	.	.
4E\	# 4	# 3	4g#X/	.	8b/L	.	8b\L	ve-
.	.	.	.	.	16a/L	.	16a\L	.
.	.	.	.	.	16b/JJ	.	16b\JJ	.
!	!	!	!	!	!	!	!LO:SIC:s=4a:v	!
8A\L	.	.	4a/	.	4a/	.	4g\	-ni
8G\	.	.	.	.	.	.	.	.
8A\	.	.	4r	.	4r	.	4r	.
8B\J	.	.	.	.	.	.	.	.
!	!	!	!	!	!LO:LB:g=original	!	!	!
*	*v	*v	*	*	*	*	*	*
=46	=46	=46	=46	=46	=46	=46	=46
!	!	!LO:SIC:s=8cc:v	!	!	!	!	!
4c\	.	8b\L	.	8cc\L	.	0r	.
.	.	16cc\L	.	16ee\L	.	.	.
.	.	16dd\JJ	.	16ff\JJ	.	.	.
4C/	.	8ee\L	.	8gg\L	.	.	.
.	.	8ee\J	.	8gg\J	.	.	.
!	!	!	!	!LO:TX:a:t=P:mixed beam:problem	!	!	!
4F\	.	4ff\	.	8aa\L	.	.	.
.	.	.	.	16f/L	.	.	.
.	.	.	.	16aa\JJ	.	.	.
4E\	.	4ee\	.	8gg\L	.	.	.
.	.	.	.	16e/L	.	.	.
.	.	.	.	16gg\JJ	.	.	.
=47	=47	=47	=47	=47	=47	=47	=47
!LO:TX:a:t=P:mixed beam:problem	!	!	!	!LO:TX:a:t=P:mixed beam:problem	!	!	!
8F\L	.	8ff\L	.	8aa\L	.	.	.
8FF/J	.	(>16dd\L	.	16f/L	.	.	.
.	.	16ff\JJ)	.	16aa\JJ	.	.	.
4C/	.	(>8ee\L	.	8gg\L	.	.	.
.	.	16cc\L	.	16e/L	.	.	.
.	.	16ee\JJ)	.	16gg\JJ	.	.	.
4F\	.	8ff\L	.	8aa\L	.	.	.
.	.	(>16dd\L	.	16ff\L	.	.	.
.	.	16ff\JJ)	.	16aa\JJ	.	.	.
4E\	.	8ee\L	.	8gg\L	.	.	.
.	.	(>16cc\L	.	16ee\L	.	.	.
.	.	16ee\JJ)	.	16gg\JJ	.	.	.
=48	=48	=48	=48	=48	=48	=48	=48
!	!	!LO:TX:b:Bi:t=Verte Cito:dur=1w:ext=s:problem:text with extention lines	!	!	!	!	!
4D/	.	8dd\L	.	8ff\L	.	1r	.
.	.	16dd\L	.	16ff\L	.	.	.
.	.	16cc\JJ	.	16ee\JJ	.	.	.
4G\	.	8b/L	.	8dd\L	.	.	.
.	.	8b/J	.	8gg\J	.	.	.
4c\	.	4cc/	.	4ee\	.	.	.
4G\	.	4b/	.	4dd\	.	.	.
!	!	!LO:PB:g=original	!	!	!	!	!
=49	=49	=49	=49	=49	=49	=49	=49
8c\L	.	16cc\LL	.	(>16ee\LL	.	16ee\LL	ve-
.	.	(>16dd\	.	16ff\)	.	16ff\	.
8B\	.	16b\	.	(>16dd\	.	16dd\	.
.	.	16dd\JJ)	.	16ff\JJ)	.	16ff\JJ	.
!	!	!	!	!LO:LB:g=original	!	!	!
8c\	.	16cc\LL	.	16ee\LL	.	16ee\LL	.
.	.	(>16dd\	.	(>16ff\	.	16ff\	.
8B\J	.	16b\	.	16dd\	.	16dd\	.
.	.	16dd\JJ)	.	16ee\JJ)	.	16ff\JJ	.
8c\L	.	16cc\LL	.	(>16ee\LL	.	16ee\LL	.
.	.	(>16dd\	.	16ff\)	.	16ff\	.
8B\	.	16b\	.	16dd\	.	16dd\	.
.	.	16dd\JJ)	.	16ff\JJ	.	16ff\JJ	.
8c\	.	16cc\LL	.	16ee\LL	.	16ee\LL	.
.	.	(>16dd\	.	(>16ff\	.	16ff\	.
8B\J	.	16b\	.	16dd\)	.	16dd\	.
.	.	16dd\JJ)	.	16ff\JJ	.	16ff\JJ	.
=50	=50	=50	=50	=50	=50	=50	=50
*	*^	*	*	*	*	*	*
!	!	!	!LO:TX:a:t=P:cauda 4cc z prawej strony:problem	!	!	!	!	!
8c\L	.	.	4cc\	.	4ee\	.	4ee\	.
8C\J	.	.	.	.	.	.	.	.
!	!	!	!LO:TX:a:t=P:cauda 4cc z prawej strony:problem	!	!	!	!	!
16G\LL	.	.	4b\	.	4dd\	.	4dd\	-ni
16A\	.	.	.	.	.	.	.	.
16B\	.	.	.	.	.	.	.	.
16G\JJ	.	.	.	.	.	.	.	.
!LO:LB:g=original	!	!	!	!	!	!	!	!
!LO:TX:a:t=P:mixed beam:problem	!	!	!	!	!	!	!	!
8c\L	.	.	8cc\L	.	8ee\L	.	8ee\L	ve-
8C/J	.	.	16dd\L	.	16ff\L	.	16ff\L	.
.	.	.	16ee\JJ	.	16gg\JJ	.	16gg\JJ	.
!LO:TX:a:t=P:mixed beam:problem	!	!	!	!	!	!	!	!
8G\L	4	3	8g/L	.	8dd\L	.	8dd\L	.
8GG/J	.	.	8e/J	.	8cc\J	.	16cc\L	.
.	.	.	.	.	.	.	16b\JJ	.
*	*v	*v	*	*	*	*	*	*
=51	=51	=51	=51	=51	=51	=51	=51
4C/	.	4cc\	.	4cc\	.	4cc\	-ni
4G\	.	4b\	.	4dd\	.	4dd\	et
!	!	!	!	!	!	!LO:LB:g=original	!
8c\L	.	16cc\LL	.	(>16ee\LL	.	16ee\LL	ve-
.	.	(>16dd\	.	16ff\)	.	16ff\	.
8B\	6	16b\	.	(>16dd\	.	16dd\	.
.	.	16dd\JJ)	.	16ff\JJ)	.	16ff\JJ	.
8c\	.	16cc\LL	.	16ee\LL	.	16dd\LL	.
.	.	(>16dd\	.	(>16ff\	.	16ff\	.
8B\J	.	16b\	.	16dd\)	.	16dd\	.
.	.	16dd\JJ)	.	16ff\JJ	.	16ff\JJ	.
=52	=52	=52	=52	=52	=52	=52	=52
8c\L	.	16cc\LL	.	16ee\LL	.	16ee\LL	.
.	.	(>16dd\	.	16ff\	.	16ff\	.
8B\	.	16b\	.	16dd\	.	16dd\	.
.	.	16dd\JJ)	.	16ff\JJ	.	16ff\JJ	.
8c\	.	16cc\LL	.	16ee\LL	.	16ee\LL	.
.	.	(>16dd\	.	16ff\	.	16ff\	.
8B\J	.	16b\	.	16dd\	.	16dd\	.
.	.	16dd\JJ)	.	16ff\JJ	.	16ff\JJ	.
!	!	!	!	!	!	!LO:TX:a:t=P:w źródle dodatkowa kreska taktowa:problem	!
8c\L	.	8cc\L	.	4ee\	.	4ee\	.
8C\J	.	16dd\L	.	.	.	.	.
.	.	16ee\JJ	.	.	.	.	.
!	!	!LO:LB:g=original	!	!	!	!	!
4G\	.	4b/	.	4dd\	.	4dd\	-ni
!	!	!	!	!LO:LB:g=original	!	!	!
=53	=53	=53	=53	=53	=53	=53	=53
4c\	.	0r	.	0r	.	16ee\LL	ve-
.	.	.	.	.	.	16dd\	.
.	.	.	.	.	.	16ee\	.
.	.	.	.	.	.	16ff\JJ	.
4B\	.	.	.	.	.	8gg\	.
.	.	.	.	.	.	8b\	-ni
4c\	.	.	.	.	.	4ee\	ve-
4G\	.	.	.	.	.	4dd\	-ni
=54	=54	=54	=54	=54	=54	=54	=54
!LO:TX:a:t=P:mixed beam:problem	!	!	!	!	!	!	!
8c\L	.	.	.	.	.	8ee\L	ve-
8E\	.	.	.	.	.	16dd\L	.
.	.	.	.	.	.	16cc\JJ	.
8G\	.	.	.	.	.	4b\	.
8GG/J	.	.	.	.	.	.	.
8C/L	.	.	.	.	.	4cc\	-ni
8D/	.	.	.	.	.	.	.
8E/	.	.	.	.	.	4r	.
8D/J	.	.	.	.	.	.	.
=55	=55	=55	=55	=55	=55	=55	=55
8C\L	.	8e/L	.	16g/LL	.	00r	.
.	.	.	.	16e/	.	.	.
8D\	.	8e/	.	16c/	.	.	.
.	.	.	.	16g/JJ	.	.	.
8E\J	6	8e/	.	16g/LL	.	.	.
.	.	.	.	16e/	.	.	.
8r	.	8e/J	.	16c/	.	.	.
.	.	.	.	16g/JJ	.	.	.
!LO:TX:a:t=P:mixed beam:problem	!	!	!	!	!	!	!
8F\L	.	8f/L	.	16a/LL	.	.	.
.	.	.	.	16f/	.	.	.
8FF/	.	8f/	.	16c/	.	.	.
.	.	.	.	16a/JJ	.	.	.
8F\J	.	8f/	.	16a/LL	.	.	.
.	.	.	.	16f/	.	.	.
8r	.	8f/J	.	16c/	.	.	.
.	.	.	.	16a/JJ	.	.	.
=56	=56	=56	=56	=56	=56	=56	=56
8C\L	.	8e/L	.	16g/LL	.	.	.
.	.	.	.	16e/	.	.	.
8D\	.	8e/	.	16c/	.	.	.
.	.	.	.	16g/JJ	.	.	.
8E\J	6	8e/	.	16g/LL	.	.	.
.	.	.	.	16e/	.	.	.
8r	.	8e/J	.	16c/	.	.	.
.	.	.	.	16g/JJ	.	.	.
!LO:LB:g=original	!	!	!	!	!	!	!
!LO:TX:a:t=P:mixed beam:problem	!	!	!	!	!	!	!
8F\L	.	8f/L	.	16a/LL	.	.	.
.	.	.	.	16f/	.	.	.
8FF/	.	8f/	.	16c/	.	.	.
.	.	.	.	16a/JJ	.	.	.
8F\J	.	8f/	.	16a/LL	.	.	.
.	.	.	.	16f/	.	.	.
8r	.	8f/J	.	16c/	.	.	.
.	.	.	.	16a/JJ	.	.	.
=57	=57	=57	=57	=57	=57	=57	=57
8D\L	.	8f#X/L	.	16a/LL	.	.	.
.	.	.	.	16f#X/	.	.	.
8E\	.	8f#/	.	16d/	.	.	.
.	.	.	.	16a/JJ	.	.	.
8F#X\J	6	8f#/	.	16a/LL	.	.	.
.	.	.	.	16f#X/	.	.	.
8r	.	8f#/J	.	16d/	.	.	.
.	.	.	.	16a/JJ	.	.	.
!	!	!	!	!LO:LB:g=original	!	!	!
!LO:TX:a:t=P:mixed beam:problem	!	!	!	!	!	!	!
8G\L	.	8g/L	.	16b/LL	.	.	.
.	.	.	.	16g/	.	.	.
8GG/	.	8g/	.	16d/	.	.	.
.	.	.	.	16g/JJ	.	.	.
8G\J	.	8g/	.	16b/LL	.	.	.
.	.	.	.	16g/	.	.	.
8r	.	8g/J	.	16d/	.	.	.
.	.	.	.	16b/JJ	.	.	.
=58	=58	=58	=58	=58	=58	=58	=58
8D\L	#	8f#X/L	.	16a/LL	.	.	.
.	.	.	.	16f#X/	.	.	.
8E\	.	8f#/	.	16d/	.	.	.
.	.	.	.	16a/JJ	.	.	.
8F#X\J	6	8f#/	.	16a/LL	.	.	.
.	.	.	.	16f#/	.	.	.
8r	.	8f#/J	.	16d/	.	.	.
.	.	.	.	16a/JJ	.	.	.
!LO:TX:a:t=P:mixed beam:problem	!	!	!	!	!	!	!
8G\L	.	8g/L	.	16b/LL	.	.	.
.	.	.	.	16g/	.	.	.
8GG/	.	8g/	.	16d/	.	.	.
.	.	.	.	16b/JJ	.	.	.
8G\J	.	8g/	.	16b/LL	.	.	.
.	.	.	.	16g/	.	.	.
8r	.	8g/J	.	16d/	.	.	.
.	.	.	.	16b/JJ	.	.	.
=59	=59	=59	=59	=59	=59	=59	=59
8E\L	#	8g#X/L	.	16b/LL	.	00r	.
.	.	.	.	16g#X/	.	.	.
8F\	#	8g#/	.	16e/	.	.	.
.	.	.	.	16b/JJ	.	.	.
!LO:SIC:s=8G#:v	!	!	!	!	!	!	!
8G\J	#6	8g#/	.	16b/LL	.	.	.
.	.	.	.	16g#X/	.	.	.
8r	.	8g#/J	.	16e/	.	.	.
.	.	.	.	16b/JJ	.	.	.
!LO:TX:a:t=P:mixed beam:problem	!	!	!	!	!	!	!
8A\L	.	8a/L	.	16cc/LL	.	.	.
.	.	.	.	16a/	.	.	.
8AA/	.	8a/	.	16e/	.	.	.
.	.	.	.	16cc/JJ	.	.	.
8A\J	.	8a/	.	16cc/LL	.	.	.
.	.	.	.	16a/	.	.	.
8r	.	8a/J	.	16e/	.	.	.
.	.	.	.	16cc/JJ	.	.	.
!	!	!LO:LB:g=original	!	!	!	!	!
=60	=60	=60	=60	=60	=60	=60	=60
8E\L	#	8g#X/L	.	16b/LL	.	.	.
.	.	.	.	16g#X/	.	.	.
8F\	#	8g#/	.	16e/	.	.	.
.	.	.	.	16b/JJ	.	.	.
!	!	!	!	!LO:LB:g=original	!	!	!
!LO:SIC:s=8G#:v	!	!	!	!	!	!	!
8G\J	#6	8g#/	.	16b/LL	.	.	.
.	.	.	.	16g#X/	.	.	.
8r	.	8g#/J	.	16e/	.	.	.
.	.	.	.	16b/JJ	.	.	.
!LO:TX:a:t=P:mixed beam:problem	!	!	!	!	!	!	!
8A\L	n	8a/L	.	16cc/LL	.	.	.
.	.	.	.	16a/	.	.	.
8AA/	.	8a/	.	16e/	.	.	.
.	.	.	.	16cc/JJ	.	.	.
8A\J	.	8a/	.	16cc/LL	.	.	.
.	.	.	.	16a/	.	.	.
8r	.	8a/J	.	16e/	.	.	.
.	.	.	.	16cc/JJ	.	.	.
=61	=61	=61	=61	=61	=61	=61	=61
8G\L	.	8b\L	.	16dd\LL	.	.	.
.	.	.	.	16b\	.	.	.
8A\	.	8b\	.	16g\	.	.	.
.	.	.	.	16dd\JJ	.	.	.
8B\J	6	8b\	.	16dd\LL	.	.	.
.	.	.	.	16b\	.	.	.
8r	.	8b\J	.	16g\	.	.	.
.	.	.	.	16dd\JJ	.	.	.
!LO:TX:a:t=P:mixed beam:problem	!	!	!	!	!	!	!
8c\L	.	8cc\L	.	16ee\LL	.	.	.
.	.	.	.	16cc\	.	.	.
8C/	.	8cc\	.	16g\	.	.	.
.	.	.	.	16ee\JJ	.	.	.
8c\J	.	8cc\	.	16ee\LL	.	.	.
.	.	.	.	16cc\	.	.	.
8r	.	8cc\J	.	16g\	.	.	.
.	.	.	.	16ee\JJ	.	.	.
!LO:LB:g=original	!	!	!	!	!	!	!
=62	=62	=62	=62	=62	=62	=62	=62
8G\L	.	8b\L	.	16dd\LL	.	.	.
.	.	.	.	16b\	.	.	.
8A\	.	8b\	.	16g\	.	.	.
.	.	.	.	16dd\JJ	.	.	.
8B\J	6	8b\	.	16dd\LL	.	.	.
.	.	.	.	16b\	.	.	.
8r	.	8b\J	.	16g\	.	.	.
.	.	.	.	16dd\JJ	.	.	.
!LO:TX:a:t=P:mixed beam:problem	!	!	!	!	!	!	!
8c\L	.	8cc\L	.	16ee\LL	.	.	.
.	.	.	.	16cc\	.	.	.
8C/	.	8cc\	.	16g\	.	.	.
.	.	.	.	16ee\JJ	.	.	.
8c\J	.	8cc\	.	16ee\LL	.	.	.
.	.	.	.	16cc\	.	.	.
8r	.	8cc\J	.	16g\	.	.	.
.	.	.	.	16ee\JJ	.	.	.
!	!	!	!	!LO:LB:g=original	!	!	!
=63	=63	=63	=63	=63	=63	=63	=63
8C\L	.	8ee\L	.	16gg\LL	.	0r	.
.	.	.	.	16ee\	.	.	.
8D\	.	8ee\	.	16cc\	.	.	.
.	.	.	.	16gg\JJ	.	.	.
8E\J	6	8ee\	.	16gg\LL	.	.	.
.	.	.	.	16ee\	.	.	.
8r	.	8ee\J	.	16cc\	.	.	.
.	.	.	.	16gg\JJ	.	.	.
!LO:TX:a:t=P:mixed beam:problem	!	!	!	!	!	!	!
8F\L	.	8ff\L	.	16aa\LL	.	.	.
.	.	.	.	16ff\	.	.	.
8FF/	.	8ff\	.	16cc\	.	.	.
.	.	.	.	16aa\JJ	.	.	.
8F\J	.	8ff\	.	16aa\LL	.	.	.
.	.	.	.	16ff\	.	.	.
8r	.	8ff\J	.	16cc\	.	.	.
.	.	.	.	16aa\JJ	.	.	.
=64	=64	=64	=64	=64	=64	=64	=64
8C\L	.	8ee\L	.	16gg\LL	.	.	.
.	.	.	.	16ee\	.	.	.
8D\	.	8ee\	.	16cc\	.	.	.
.	.	.	.	16gg\JJ	.	.	.
8E\J	6	8ee\	.	16gg\LL	.	.	.
.	.	.	.	16ee\	.	.	.
8r	.	8ee\J	.	16cc\	.	.	.
.	.	.	.	16gg\JJ	.	.	.
!LO:TX:a:t=P:mixed beam:problem	!	!	!	!	!	!	!
8F\L	.	8ff\L	.	16aa\LL	.	.	.
.	.	.	.	16ff\	.	.	.
8FF/	.	8ff\	.	16cc\	.	.	.
.	.	.	.	16aa\JJ	.	.	.
8F\J	.	8ff\	.	16aa\LL	.	.	.
.	.	.	.	16ff\	.	.	.
8r	.	8ff\J	.	16cc\	.	.	.
.	.	.	.	16aa\JJ	.	.	.
=65	=65	=65	=65	=65	=65	=65	=65
8C/L	.	8ee\L	.	8gg\L	.	8gg\	ſur-
!LO:TX:b:Bi:t=C.	!	!	!	!	!	!	!
8C/	.	8ee\	.	8gg\	.	8gg\	-ge
8C/	.	8ee\	.	8gg\	.	8gg\	ſur-
8D/J	.	8dd\J	.	8ff\J	.	8ff\	-ge
!	!	!	!	!	!	!LO:LB:g=original	!
8BB/L	.	8dd\L	.	8ff\L	.	8.ff\	pro-
8DD/J	.	8dd\J	.	8ff\J	.	.	.
.	.	.	.	.	.	16ff\	-pe-
!	!	!LO:LB:g=original	!	!	!	!	!
4c\	.	4cc\	.	4ee\	.	4ee\	-ra
!	!	!	!	!LO:LB:g=original	!	!	!
=66	=66	=66	=66	=66	=66	=66	=66
8c\L	.	8cc\L	.	8ee\L	.	8ee\L	A-
8B\	.	8b\	.	8dd\	.	8dd\J	.
8A\	.	8a\	.	8cc\	.	8cc\	-mi-
8F\J	.	8b\J	.	8dd\J	.	16dd\LL	-ca
.	.	.	.	.	.	16ee\JJ	.
4G\	.	8g/L	.	8b/L	.	8.b\L	me-
.	.	8f#X/J	.	8a/J	.	.	.
.	.	.	.	.	.	16a\Jk	.
4GG/	.	4g/	.	4g/	.	4g\	-a
=67	=67	=67	=67	=67	=67	=67	=67
8c\L	.	8cc\L	.	8ee\L	.	8ee\L	Co-
8B\	.	8b\	.	8dd\J	.	8dd\J	.
8A\	.	8a\	.	8cc\L	.	8cc\	-lum-
8F\J	.	8b\J	.	16dd\L	.	16dd\LL	-ba
.	.	.	.	16ee\JJ	.	16ee\JJ	.
4G\	.	8g/L	.	8b/L	.	8b\L	me-
.	.	8f#X/J	.	8a/J	.	8a\J	.
4GG/	.	4g/	.	4g/	.	8g\	-a
.	.	.	.	.	.	8g\	et
!LO:LB:g=original	!	!	!	!	!	!	!
=68	=68	=68	=68	=68	=68	=68	=68
!LO:TX:a:t=P:mixed beam:problem	!	!	!	!	!	!	!
8E\L	.	00r	.	00r	.	16cc\LL	ve-
.	.	.	.	.	.	16b\	.
8EE/	6	.	.	.	.	16cc\	.
.	.	.	.	.	.	16dd\JJ	.
8E\J	.	.	.	.	.	16cc\LL	.
.	.	.	.	.	.	16dd\	.
8r	.	.	.	.	.	16cc\	.
.	.	.	.	.	.	16b\JJ	.
!LO:TX:a:t=P:mixed beam:problem	!	!	!	!	!	!	!
8F\L	.	.	.	.	.	16a\LL	.
.	.	.	.	.	.	16g\	.
8FF/	.	.	.	.	.	16a\	.
.	.	.	.	.	.	16b\JJ	.
8F\J	.	.	.	.	.	16a\LL	.
.	.	.	.	.	.	16b\	.
8r	.	.	.	.	.	16cc\	.
.	.	.	.	.	.	16a\JJ	.
!	!	!	!	!	!	!LO:LB:g=original	!
=69	=69	=69	=69	=69	=69	=69	=69
!LO:TX:a:t=P:mixed beam:problem	!	!	!	!	!	!	!
8F#X\L	6	.	.	.	.	16dd\LL	.
.	.	.	.	.	.	16cc\	.
8FF#X/	.	.	.	.	.	16dd\	.
.	.	.	.	.	.	16ee\JJ	.
8F#\J	.	.	.	.	.	16dd\LL	.
.	.	.	.	.	.	16ee\	.
8r	.	.	.	.	.	16dd\	.
.	.	.	.	.	.	16cc\JJ	.
!LO:TX:a:t=P:mixed beam:problem	!	!	!	!	!	!	!
8G\L	.	.	.	.	.	16b\LL	.
.	.	.	.	.	.	16a\	.
8GG/	.	.	.	.	.	16b\	.
.	.	.	.	.	.	16cc\JJ	.
8G\J	.	.	.	.	.	16b\LL	.
.	.	.	.	.	.	16cc\	.
8r	.	.	.	.	.	16dd\	.
.	.	.	.	.	.	16b\JJ	.
=70	=70	=70	=70	=70	=70	=70	=70
!LO:TX:a:t=P:mixed beam:problem	!	!	!	!	!	!	!
8c\L	.	.	.	.	.	16ee\LL	.
.	.	.	.	.	.	16dd\	.
8C/	.	.	.	.	.	16ee\	.
.	.	.	.	.	.	16ff\JJ	.
8c\J	.	.	.	.	.	16ee\LL	.
.	.	.	.	.	.	16ff\	.
8r	.	.	.	.	.	16ee\	.
.	.	.	.	.	.	16dd\JJ	.
!LO:TX:a:t=P:mixed beam:problem	!	!	!	!	!	!	!
8AA/L	.	.	.	.	.	16cc\LL	.
.	.	.	.	.	.	16b\	.
8A\	.	.	.	.	.	16cc\	.
.	.	.	.	.	.	16dd\JJ	.
8AA/J	.	.	.	.	.	16cc\LL	.
.	.	.	.	.	.	16dd\	.
8r	.	.	.	.	.	16ee\	.
.	.	.	.	.	.	16cc\JJ	.
=71	=71	=71	=71	=71	=71	=71	=71
!LO:TX:a:t=P:mixed beam:problem	!	!	!	!	!	!	!
8d\L	.	.	.	.	.	16ff\LL	.
.	.	.	.	.	.	16ee\	.
8D/	.	.	.	.	.	16ff\	.
.	.	.	.	.	.	16gg\JJ	.
8d\J	.	.	.	.	.	16ff\LL	.
.	.	.	.	.	.	16gg\	.
8r	.	.	.	.	.	16ff\	.
.	.	.	.	.	.	16ee\JJ	.
8B\L	.	.	.	.	.	16dd\LL	.
.	.	.	.	.	.	16cc\	.
8A\	.	.	.	.	.	16dd\	.
.	.	.	.	.	.	16ee\JJ	.
8G\J	.	.	.	.	.	8ff\	.
8r	.	.	.	.	.	8dd\	-ni
!	!	!	!	!	!	!LO:LB:g=original	!
=72	=72	=72	=72	=72	=72	=72	=72
8d\L	.	00r	.	00r	.	8ff\	ſur-
8c\	.	.	.	.	.	8ee\	-ge
8B\	.	.	.	.	.	8dd\	ſur-
8G\J	.	.	.	.	.	8dd\	-ge
8c\L	.	.	.	.	.	8ee\L	A-
8B\	.	.	.	.	.	8dd\J	.
8A\	.	.	.	.	.	8cc\	-mi-
8F#X\J	.	.	.	.	.	16dd\LL	-ca
.	.	.	.	.	.	16ee\JJ	.
=73	=73	=73	=73	=73	=73	=73	=73
4G\	.	.	.	.	.	8b\L	me-
.	.	.	.	.	.	8a\J	.
!LO:LB:g=original	!	!	!	!	!	!	!
4GG/	.	.	.	.	.	8g\	-a
.	.	.	.	.	.	8g\	et
!LO:TX:a:t=P:mixed beam:problem	!	!	!	!	!	!	!
8E\L	6	.	.	.	.	16cc\LL	ve-
.	.	.	.	.	.	16b\	.
8EE/	.	.	.	.	.	16cc\	.
.	.	.	.	.	.	16dd\JJ	.
8E\J	.	.	.	.	.	16cc\LL	.
.	.	.	.	.	.	16dd\	.
8r	.	.	.	.	.	16cc\	.
.	.	.	.	.	.	16b\JJ	.
=74	=74	=74	=74	=74	=74	=74	=74
!LO:TX:a:t=P:mixed beam:problem	!	!	!	!	!	!	!
8F\L	.	.	.	.	.	16a\LL	.
.	.	.	.	.	.	16g\	.
8FF/	.	.	.	.	.	16a\	.
.	.	.	.	.	.	16b\JJ	.
8F\J	.	.	.	.	.	16a\LL	.
.	.	.	.	.	.	16b\	.
8r	.	.	.	.	.	16cc\	.
.	.	.	.	.	.	16a\JJ	.
!LO:TX:a:t=P:mixed beam:problem	!	!	!	!	!	!	!
8F#X\L	6	.	.	.	.	16dd\LL	.
.	.	.	.	.	.	16cc\	.
8FF#X/	.	.	.	.	.	16dd\	.
.	.	.	.	.	.	16ee\JJ	.
8F#\J	.	.	.	.	.	16dd\LL	.
.	.	.	.	.	.	16ee\	.
8r	.	.	.	.	.	16dd\	.
.	.	.	.	.	.	16cc\JJ	.
!	!	!	!	!	!	!LO:PB:g=original	!
=75	=75	=75	=75	=75	=75	=75	=75
!LO:TX:a:t=P:mixed beam:problem	!	!	!	!	!	!	!
8G\L	.	.	.	.	.	16b\LL	.
.	.	.	.	.	.	16a\	.
8GG/	.	.	.	.	.	16b\	.
.	.	.	.	.	.	16cc\JJ	.
8G\J	.	.	.	.	.	16b\LL	.
.	.	.	.	.	.	16cc\	.
8r	.	.	.	.	.	16dd\	.
.	.	.	.	.	.	16b\JJ	.
!LO:TX:a:t=P:mixed beam:problem	!	!	!	!	!	!	!
8c\L	.	.	.	.	.	16ee\LL	.
.	.	.	.	.	.	16dd\	.
8C/	.	.	.	.	.	16ee\	.
.	.	.	.	.	.	16ff\JJ	.
8c\J	.	.	.	.	.	16ee\LL	.
.	.	.	.	.	.	16ff\	.
8r	.	.	.	.	.	16ee\	.
.	.	.	.	.	.	16dd\JJ	.
=76	=76	=76	=76	=76	=76	=76	=76
!LO:TX:a:t=P:mixed beam:problem	!	!	!	!	!	!	!
8A\L	.	00r	.	00r	.	16cc\LL	.
.	.	.	.	.	.	16b\	.
8AA/	.	.	.	.	.	16cc\	.
.	.	.	.	.	.	16dd\JJ	.
8A\J	.	.	.	.	.	16cc\LL	.
.	.	.	.	.	.	16dd\	.
8r	.	.	.	.	.	16ee\	.
.	.	.	.	.	.	16cc\JJ	.
!LO:TX:a:t=P:mixed beam:problem	!	!	!	!	!	!	!
8d\L	.	.	.	.	.	16ff\LL	.
.	.	.	.	.	.	16ee\	.
8D/	.	.	.	.	.	16ff\	.
.	.	.	.	.	.	16gg\JJ	.
8d\J	.	.	.	.	.	16ff\LL	.
.	.	.	.	.	.	16gg\	.
8r	.	.	.	.	.	16ff\	.
.	.	.	.	.	.	16ee\JJ	.
=77	=77	=77	=77	=77	=77	=77	=77
8G\L	.	.	.	.	.	16dd\LL	.
.	.	.	.	.	.	16cc\	.
8A\	.	.	.	.	.	16dd\	.
.	.	.	.	.	.	16ee\JJ	.
8B\J	6	.	.	.	.	8ff\	.
8r	.	.	.	.	.	8dd\	-ni
8d\L	.	.	.	.	.	8ff\	ſur-
8c\	.	.	.	.	.	8ee\	-ge
!	!	!	!	!	!	!LO:LB:g=original	!
8B\	.	.	.	.	.	8ee\	ſur-
8G\J	.	.	.	.	.	8dd\	-ge
=78	=78	=78	=78	=78	=78	=78	=78
8c\L	.	.	.	.	.	(>8ee\L	Co-
8B\	.	.	.	.	.	8dd\J)	.
8A\	.	.	.	.	.	8cc\	-lum-
8F#X\J	.	.	.	.	.	(>16dd\LL	-ba
.	.	.	.	.	.	16ee\JJ)	.
4G\	.	.	.	.	.	(>8b\L	me-
.	.	.	.	.	.	8a\J)	.
4GG/	.	.	.	.	.	8g\	-a
.	.	.	.	.	.	8g\	et
!LO:LB:g=original	!	!	!	!	!	!	!
=79	=79	=79	=79	=79	=79	=79	=79
4c\	.	.	.	.	.	16cc\LL	ve-
.	.	.	.	.	.	16dd\	.
.	.	.	.	.	.	16b\	.
.	.	.	.	.	.	16dd\JJ	.
4B\	6	.	.	.	.	16cc\LL	.
.	.	.	.	.	.	16dd\	.
.	.	.	.	.	.	16b\	.
.	.	.	.	.	.	16dd\JJ	.
4c\	.	.	.	.	.	16cc\LL	.
.	.	.	.	.	.	16b\	.
.	.	.	.	.	.	16cc\	.
.	.	.	.	.	.	16dd\JJ	.
4G\	.	.	.	.	.	16ee\LL	.
.	.	.	.	.	.	16dd\	.
.	.	.	.	.	.	16ee\	.
.	.	.	.	.	.	16ff\JJ	.
=80	=80	=80	=80	=80	=80	=80	=80
8c\L	.	1r	.	1r	.	8gg\	.
8E\	6	.	.	.	.	16ff\LL	-ni
.	.	.	.	.	.	16ee\JJ	.
8F\	.	.	.	.	.	8dd\L	ve-
8G\J	.	.	.	.	.	16ee\L	.
.	.	.	.	.	.	16dd\JJ	.
!	!	!	!	!	!	!LO:LB:g=original	!
8C/L	.	.	.	.	.	4cc\	-ni
8D/	.	.	.	.	.	.	.
8E/	.	.	.	.	.	4r	.
8D/J	.	.	.	.	.	.	.
=81	=81	=81	=81	=81	=81	=81	=81
4C/	.	4ee\	.	4gg\	.	00r	.
4D/	.	4ff\	.	4aa\	.	.	.
8C/L	.	16cc\LL	.	16ee\LL	.	.	.
.	.	(>16dd\	.	16ff\	.	.	.
8D/	.	16cc\	.	16ee\	.	.	.
.	.	16dd\JJ)	.	16ff\JJ	.	.	.
8E/	.	8ee\L	.	8gg\L	.	.	.
8GG/J	.	8cc\J	.	8cc\J	.	.	.
=82	=82	=82	=82	=82	=82	=82	=82
4C/	.	4ee\	.	4gg\	.	.	.
4E\	6	8aa\L	.	8ccc\L	.	.	.
.	.	8gg\J	.	8bb\J	.	.	.
4F\	.	4.ff\	.	4.aa\	.	.	.
4C/	.	.	.	.	.	.	.
.	.	8ee\	.	8gg\	.	.	.
=83	=83	=83	=83	=83	=83	=83	=83
!LO:TX:a:t=P:mixed beam:problem	!	!	!	!	!	!	!
8F\L	.	8ff\L	.	16aa\LL	.	.	.
.	.	.	.	(>16ff\	.	.	.
8FF/	.	8ff\	.	16cc\)	.	.	.
.	.	.	.	16ff\JJ	.	.	.
8F\J	.	8ff\	.	(>16aa\LL	.	.	.
.	.	.	.	16ff\	.	.	.
8r	.	8ff\J	.	16cc\)	.	.	.
.	.	.	.	16ff\JJ	.	.	.
!	!	!LO:LB:g=original	!	!LO:LB:g=original	!	!	!
8C\L	.	8ee\L	.	16gg\LL	.	.	.
.	.	.	.	(>16ee\	.	.	.
8D\	.	16cc\L	.	16cc\)	.	.	.
.	.	16dd\JJ	.	16gg\JJ	.	.	.
8E\J	6	8ee\L	.	16gg\LL	.	.	.
.	.	.	.	(>16ee\	.	.	.
8r	.	8cc\J	.	16cc\)	.	.	.
.	.	.	.	16gg\JJ	.	.	.
=84	=84	=84	=84	=84	=84	=84	=84
!LO:TX:a:t=P:mixed beam:problem	!	!	!	!	!	!	!
8F\L	.	8ff\L	.	(>16aa\LL	.	.	.
.	.	.	.	16ff\	.	.	.
8FF/	.	8ff\	.	16cc\)	.	.	.
.	.	.	.	16ff\JJ	.	.	.
8F\J	.	8ff\	.	16aa\LL	.	.	.
.	.	.	.	(>16ff\	.	.	.
8r	.	8ff\J	.	16cc\	.	.	.
.	.	.	.	16ff\JJ)	.	.	.
8C\L	.	8ee\L	.	16gg\LL	.	.	.
.	.	.	.	(>16ee\	.	.	.
8D\	.	16cc\L	.	16cc\	.	.	.
.	.	16dd\JJ	.	16gg\JJ)	.	.	.
8E\J	6	8ee\L	.	(>16gg\LL	.	.	.
.	.	.	.	16ee\	.	.	.
8r	.	8cc\J	.	16cc\	.	.	.
.	.	.	.	16gg\JJ)	.	.	.
=85	=85	=85	=85	=85	=85	=85	=85
4F\	.	8ff\L	.	8aa\L	.	00r	.
.	.	16ff\L	.	16aa\L	.	.	.
.	.	16ee\JJ	.	16gg\JJ	.	.	.
4D\	.	8dd\L	.	8ff\L	.	.	.
.	.	16dd\L	.	16ff\L	.	.	.
.	.	16cc\JJ	.	16ee\JJ	.	.	.
!LO:LB:g=original	!	!	!	!	!	!	!
8G\L	.	4b/	.	4dd\	.	.	.
8A\	.	.	.	.	.	.	.
8B\	.	4r	.	4r	.	.	.
8A\J	.	.	.	.	.	.	.
=86	=86	=86	=86	=86	=86	=86	=86
8G\L	.	8b\L	.	16dd\LL	.	.	.
.	.	.	.	16b\	.	.	.
8A\	.	8b\	.	16g\	.	.	.
.	.	.	.	16dd\JJ	.	.	.
8B\J	.	8b\	.	16dd\LL	.	.	.
.	.	.	.	16b\	.	.	.
8r	.	8b\J	.	16g\	.	.	.
.	.	.	.	16dd\JJ	.	.	.
!	!	!	!	!LO:LB:g=original	!	!	!
8c\L	.	8cc\L	.	16ee\LL	.	.	.
.	.	.	.	16cc\	.	.	.
8C\J	.	8cc\	.	16g\	.	.	.
.	.	.	.	16ee\JJ	.	.	.
8c\L	.	8cc\	.	16ee\LL	.	.	.
.	.	.	.	16cc\	.	.	.
16B\L	.	8cc\J	.	16g\	.	.	.
16A\JJ	.	.	.	16ee\JJ	.	.	.
=87	=87	=87	=87	=87	=87	=87	=87
8G\L	.	8b\L	.	16dd\LL	.	.	.
.	.	.	.	16b\	.	.	.
8A\	.	8b\	.	16g\	.	.	.
.	.	.	.	16dd\JJ	.	.	.
8B\J	6	8b\	.	16dd\LL	.	.	.
.	.	.	.	16b\	.	.	.
8r	.	8b\J	.	16g\	.	.	.
.	.	.	.	16dd\JJ	.	.	.
8c\L	.	8cc\L	.	16ee\LL	.	.	.
.	.	.	.	16cc\	.	.	.
8G\J	.	8cc\	.	16g\	.	.	.
.	.	.	.	16ee\JJ	.	.	.
8c\L	.	8cc\	.	16ee\LL	.	.	.
.	.	.	.	16cc\	.	.	.
16B\L	.	8cc\J	.	16g\	.	.	.
16A\JJ	.	.	.	16ee\JJ	.	.	.
=88	=88	=88	=88	=88	=88	=88	=88
8d\L	.	8dd\	.	8ff\	.	.	.
16d\L	4	8r	.	8r	.	.	.
16c\JJ	.	.	.	.	.	.	.
16B\LL	.	8ee\	.	8gg\	.	.	.
16A\J	.	.	.	.	.	.	.
8G\J	.	8r	.	8r	.	.	.
!	!	!LO:LB:g=original	!	!	!	!	!
4c\	.	8cc/L	.	8ee\L	.	.	.
.	.	16b/L	.	16dd\L	.	.	.
.	.	16a/JJ	.	16cc\JJ	.	.	.
4G\	.	8g/L	.	8b\L	.	.	.
.	.	16a/L	.	16cc\L	.	.	.
.	.	16b/JJ	.	16dd\JJ	.	.	.
=89	=89	=89	=89	=89	=89	=89	=89
4C/	.	8cc/L	.	8ee\L	.	1r	.
.	.	16b/L	.	16dd\L	.	.	.
.	.	16a/JJ	.	16cc\JJ	.	.	.
4G\	.	8b/L	.	8b/L	.	.	.
.	.	16a/L	.	16a/L	.	.	.
.	.	16g/JJ	.	16g/JJ	.	.	.
!	!	!	!	!LO:LB:g=original	!	!	!
4c\	.	4cc\	.	4cc\	.	.	.
4C/	.	4c/	.	4c/	.	.	.
=90	=90	=90	=90	=90	=90	=90	=90
8C/L	.	4e/	.	4g/	.	4g\	ſur-
8D/	.	.	.	.	.	.	.
8E/	.	4e/	.	4cc\	.	4cc\	-ge
8C/J	6	.	.	.	.	.	.
4F\	.	4f/	.	8.a/L	.	8.a\	pro-
.	.	.	.	16a/Jk	.	16a\	-pe-
4C/	.	4e/	.	4g/	.	4g\	-ra
!LO:LB:g=original	!	!	!	!	!	!	!
=91	=91	=91	=91	=91	=91	=91	=91
8F\L	.	4f/	.	4a/	.	4a\	a-
8E\	6	.	.	.	.	.	.
8D\	7	8e/L	.	8g/L	.	8g\	-mi-
8G\J	7	8d/J	.	8f/J	.	8f/	-ca
!LO:TX:a:t=P:mixed beam:problem	!	!	!	!	!	!	!
8C/L	.	4e/	.	4g/	.	4g/	me-
16c\L	.	.	.	.	.	.	.
16B\JJ	.	.	.	.	.	.	.
8c\L	.	4c/	.	4e/	.	4e/	-a
8C\J	.	.	.	.	.	.	.
=92	=92	=92	=92	=92	=92	=92	=92
8F\L	.	4f/	.	4a/	.	4a\	Co-
8E\	6	.	.	.	.	.	.
8D\	7	8e/L	.	8g/L	.	8g/	-lum-
8G\J	7	8d/J	.	8f/J	.	8f/	-ba
16C/LL	.	4e/	.	4g/	.	4g/	me-
16D/	.	.	.	.	.	.	.
16E/	.	.	.	.	.	.	.
16F/JJ	.	.	.	.	.	.	.
8G\L	.	4c/	.	4e/	.	4e/	-a
8c\J	.	.	.	.	.	.	.
=93	=93	=93	=93	=93	=93	=93	=93
8F\L	.	4f/	.	4a/	.	4a\	for
8E\	.	.	.	.	.	.	.
8D\	.	4g/	.	16b\LL	.	8b\	mo-
.	.	.	.	16cc\	.	.	.
8G\J	.	.	.	16dd\	.	8b\	-sa
.	.	.	.	16ee\JJ	.	.	.
4c\	.	4cc\	.	4cc\	.	4cc\	me-
4C/	.	4c/	.	4c/	.	4cc\	-a
!	!	!	!	!	!	!LO:LB:g=original	!
=94	=94	=94	=94	=94	=94	=94	=94
8G\L	.	4b\	.	4dd\	.	4dd\	ſur-
8A\J	.	.	.	.	.	.	.
8B\L	6	4b\	.	4gg\	.	4gg\	-ge
8G\J	.	.	.	.	.	.	.
8c\L	.	8cc\L	.	8.ee\L	.	8.ee\	pro-
16B\L	.	8cc\J	.	.	.	.	.
16A\JJ	.	.	.	16ee\Jk	.	16ee\	-pe-
16G\LL	.	4b\	.	4dd\	.	4dd\	-ra
16A\	.	.	.	.	.	.	.
16B\	.	.	.	.	.	.	.
16G\JJ	.	.	.	.	.	.	.
=95	=95	=95	=95	=95	=95	=95	=95
8c\L	.	8cc\L	.	8ee\L	.	4ee\	a-
8B\	6	16b\L	.	16dd\L	.	.	.
.	.	16cc\JJ	.	16ee\JJ	.	.	.
!	!	!LO:LB:g=original	!	!	!	!	!
8c\	.	16dd\LL	.	16ff\LL	.	8dd\	-mi-
.	.	16cc\	.	(>16ee\	.	.	.
8A\J	6\	16b\	.	16dd\)	.	8cc\	-ca
.	.	16a\JJ	.	16cc\JJ	.	.	.
!	!	!	!	!LO:PB:g=original	!	!	!
8G\L	.	4b/	.	8dd\L	.	4dd\	me-
8A\	.	.	.	8ee\J	.	.	.
8B\	6	4g/	.	4b\	.	4b\	-a
8G\J	.	.	.	.	.	.	.
!LO:PB:g=original	!	!	!	!	!	!	!
=96	=96	=96	=96	=96	=96	=96	=96
8c\L	.	8cc\L	.	8ee\L	.	4ee\	Co-
8B\	6	16b\L	.	16dd\L	.	.	.
.	.	16cc\JJ	.	16ee\JJ	.	.	.
8c\	.	16dd\LL	.	(>16ff\LL	.	8dd\	-l(um)-
.	.	16cc\	.	16ee\	.	.	.
8A\J	6\	16b\	.	16dd\)	.	8cc\	-ba
.	.	16a\JJ	.	16cc\JJ	.	.	.
8G\L	.	4b/	.	8dd\L	.	4dd\	me-
8A\	.	.	.	8ee\J	.	.	.
8B\	6	4g/	.	4b/	.	4b\	-a
8G\J	.	.	.	.	.	.	.
=97	=97	=97	=97	=97	=97	=97	=97
8c\L	.	8cc\L	.	4ee\	.	4.ee\	for-
8B\	6	8b\	.	.	.	.	.
8A\	7	8a\	.	16ff#X\LL	.	.	.
.	.	.	.	16gg\	.	.	.
8d\J	#7r	8dd\J	.	16aa\	.	8ff#X\	-mo-
.	.	.	.	16bb\JJ	.	.	.
8G\L	.	4b/	.	8gg\L	.	8ff#\	-sa
8A\	.	.	.	8gg\J	.	8gg\	me-
8B\J	6	4g/	.	4g/	.	8gg\	-a
8r	.	.	.	.	.	8dd\	et
!	!	!	!	!	!	!LO:LB:g=original	!
=98	=98	=98	=98	=98	=98	=98	=98
!	!	!LO:TX:a:B:t=4	!	!	!	!	!
8c\L	.	00r	.	00r	.	16ee\LL	ve-
.	.	.	.	.	.	16ff\	.
8B\	6	.	.	.	.	16ee\	.
.	.	.	.	.	.	16dd\JJ	.
8A\	6\	.	.	.	.	16cc\LL	.
.	.	.	.	.	.	16dd\	.
8G\J	.	.	.	.	.	16cc\	.
.	.	.	.	.	.	16b\JJ	.
!LO:TX:a:t=P:mixed beam:problem	!	!	!	!	!	!	!
8F#X\L	.	.	.	.	.	16a\LL	.
.	.	.	.	.	.	16dd\	.
8D\	.	.	.	.	.	16cc\	.
.	.	.	.	.	.	16dd\JJ	.
8G\	.	.	.	.	.	16b\LL	.
.	.	.	.	.	.	16ee\	.
8GG/J	.	.	.	.	.	16dd\	.
.	.	.	.	.	.	16ee\JJ	.
=99	=99	=99	=99	=99	=99	=99	=99
4A\	.	.	.	.	.	16cc\LL	.
.	.	.	.	.	.	16ff\	.
.	.	.	.	.	.	16ee\	.
.	.	.	.	.	.	16ff\JJ	.
4B\	.	.	.	.	.	16dd\LL	.
.	.	.	.	.	.	16gg\	.
.	.	.	.	.	.	16ff\	.
.	.	.	.	.	.	16gg\JJ	.
8c\L	.	.	.	.	.	16ee\LL	.
.	.	.	.	.	.	16ff\	.
8B\	6	.	.	.	.	16ee\	.
.	.	.	.	.	.	16dd\JJ	.
8c\	.	.	.	.	.	16ee\LL	.
.	.	.	.	.	.	16ff\	.
8B\J	6	.	.	.	.	16ee\	.
.	.	.	.	.	.	16dd\JJ	.
=100	=100	=100	=100	=100	=100	=100	=100
8c\L	.	.	.	.	.	16ee\LL	.
.	.	.	.	.	.	16ff\	.
8B\	6	.	.	.	.	16ee\	.
.	.	.	.	.	.	16dd\JJ	.
8c\	.	.	.	.	.	16ee\LL	.
.	.	.	.	.	.	16ff\	.
8B\J	6	.	.	.	.	16ee\	.
.	.	.	.	.	.	16dd\JJ	.
!	!	!	!	!	!	!LO:LB:g=original	!
8c\	.	.	.	.	.	16cc\LL	.
.	.	.	.	.	.	16b\	.
8r	.	.	.	.	.	16cc\	.
.	.	.	.	.	.	16dd\JJ	.
4r	.	.	.	.	.	16ee\LL	.
.	.	.	.	.	.	16dd\	.
.	.	.	.	.	.	16ee\	.
.	.	.	.	.	.	16ff\JJ	.
=101	=101	=101	=101	=101	=101	=101	=101
*	*^	*	*	*	*	*	*
8c\L	.	.	.	.	.	.	8gg\	.
16E\L	6	.	.	.	.	.	8aa\	-ni
16F\JJ	.	.	.	.	.	.	.	.
!LO:TX:a:t=P:mixed beam:problem	!	!	!	!	!	!	!	!
8G\L	.	.	.	.	.	.	8b\L	ve-
8GG/J	4	3	.	.	.	.	16a\L	.
.	.	.	.	.	.	.	16b\JJ	.
!LO:LB:g=original	!	!	!	!	!	!	!	!
8C/L	.	.	.	.	.	.	4cc\	-ni
8D/	.	.	.	.	.	.	.	.
8E/	.	.	.	.	.	.	4r	.
8BB/J	6	.	.	.	.	.	.	.
!	!	!	!	!	!	!	!LO:TX:a:t=P:w źródle ozdobna kreska taktowa:problem	!
*	*v	*v	*	*	*	*	*	*
=102	=102	=102	=102	=102	=102	=102||	=102||
8C/L	.	4e/	.	16g/LL	.	00r	.
.	.	.	.	16cc/	.	.	.
8D/	.	.	.	16b/	.	.	.
.	.	.	.	16cc/JJ	.	.	.
!LO:TX:a:t=P:w źródle cyfrowanie nad pauzą ósemkową:problem	!	!	!	!	!	!	!
8E/J	6	16e/LL	.	4cc/	.	.	.
.	.	16c/	.	.	.	.	.
8r	.	16A/	.	.	.	.	.
.	.	16e/JJ	.	.	.	.	.
4r	.	8f/L	.	8a/L	.	.	.
.	.	8f/	.	8a/	.	.	.
!LO:TX:a:t=P:mixed beam:problem	!	!	!	!	!	!	!
8F\L	.	8f/J	.	8a/J	.	.	.
8FF/J	.	8r	.	8r	.	.	.
=103	=103	=103	=103	=103	=103	=103	=103
8D\L	#	4f#X/	.	16a\LL	.	.	.
.	.	.	.	16dd\	.	.	.
8E\	.	.	.	16cc\	.	.	.
.	.	.	.	16dd\JJ	.	.	.
8F#X\J	6	16b/LL	.	4dd\	.	.	.
.	.	16g/	.	.	.	.	.
8r	.	16d/	.	.	.	.	.
.	.	16b/JJ	.	.	.	.	.
4r	.	8g/L	.	8b\L	.	.	.
.	.	8g/	.	8b\	.	.	.
!LO:TX:a:t=P:mixed beam:problem	!	!	!	!	!	!	!
8G\L	.	8g/J	.	8b\J	.	.	.
8GG/J	.	8r	.	8r	.	.	.
!	!	!LO:LB:g=original	!	!	!	!	!
=104	=104	=104	=104	=104	=104	=104	=104
8E\L	#	4g/	.	16b\LL	.	.	.
.	.	.	.	16ee\	.	.	.
8F\	#	.	.	16dd\	.	.	.
.	.	.	.	16ee\JJ	.	.	.
8G\J	#6	16cc/LL	.	4ee\	.	.	.
.	.	16g/	.	.	.	.	.
8r	.	16e/	.	.	.	.	.
.	.	16cc/JJ	.	.	.	.	.
4r	.	8a/L	.	8cc\L	.	.	.
.	.	8a/	.	8cc\	.	.	.
!LO:TX:a:t=P:mixed beam:problem	!	!	!	!	!	!	!
8A\L	.	8a/J	.	8cc\J	.	.	.
8AA/J	.	8r	.	8r	.	.	.
=105	=105	=105	=105	=105	=105	=105	=105
8A\L	n	4a/	.	16dd\LL	.	.	.
.	.	.	.	16ff\	.	.	.
8G#X\	6	.	.	16ee\	.	.	.
.	.	.	.	16ff\JJ	.	.	.
!	!	!	!	!LO:LB:g=original	!	!	!
8A\J	.	16cc/LL	.	4ff\	.	.	.
.	.	16a/	.	.	.	.	.
8r	.	16a/	.	.	.	.	.
.	.	16cc/JJ	.	.	.	.	.
4r	.	8b-X/L	.	8dd\L	.	.	.
.	.	8b-/	.	8dd\	.	.	.
!LO:TX:a:t=P:mixed beam:problem	!	!	!	!	!	!	!
8B\L	.	8b-/J	.	8dd\J	.	.	.
8BB/J	.	8r	.	8r	.	.	.
=106	=106	=106	=106	=106	=106	=106	=106
8G\L	.	8bn/L	.	16dd\LL	.	00r	.
.	.	.	.	16gg\	.	.	.
8A\	.	8b/	.	16ff#X\	.	.	.
.	.	.	.	16gg\JJ	.	.	.
8B\J	6	8b/J	.	4gg\	.	.	.
8r	.	8r	.	.	.	.	.
4r	.	8cc\L	.	8ee\L	.	.	.
.	.	8cc\	.	8ee\	.	.	.
!LO:TX:a:t=P:mixed beam:problem	!	!	!	!	!	!	!
8c\L	.	8cc\J	.	8ee\J	.	.	.
8C/J	.	8r	.	8r	.	.	.
!LO:LB:g=original	!	!	!	!	!	!	!
=107	=107	=107	=107	=107	=107	=107	=107
4d\	.	8dd\L	.	8ff\L	.	.	.
.	.	16ee\L	.	16gg\L	.	.	.
.	.	16dd\JJ	.	16ff\JJ	.	.	.
4G\	.	8cc\L	.	8ee\L	.	.	.
.	.	8b\J	.	8dd\J	.	.	.
8c\L	.	8.cc/L	.	8.ee\L	.	.	.
8B\	.	.	.	.	.	.	.
.	.	16b/K	.	16dd\K	.	.	.
8A\	.	8a/	.	8cc\	.	.	.
8G\J	.	8g/J	.	8b\J	.	.	.
=108	=108	=108	=108	=108	=108	=108	=108
*	*^	*	*	*	*	*	*
!LO:TX:a:t=P:mixed beam:problem	!	!	!	!	!	!	!	!
8F\L	.	.	8f/L	.	8a\L	.	.	.
8D\	.	.	8a/	.	16dd\L	.	.	.
.	.	.	.	.	16ee\JJ	.	.	.
8G\	.	.	8g/	.	8b/L	.	.	.
8GG/J	4	3	8b/J	.	16a/L	.	.	.
.	.	.	.	.	16g/JJ	.	.	.
!	!	!	!	!	!LO:SIC:4cc:v	!	!	!
8C/L	.	.	4cc\	.	4b\	.	.	.
16C/L	.	.	.	.	.	.	.	.
16D/JJ	.	.	.	.	.	.	.	.
8E\L	6	.	4r	.	4r	.	.	.
16F\L	.	.	.	.	.	.	.	.
16G\JJ	.	.	.	.	.	.	.	.
*	*v	*v	*	*	*	*	*	*
=109	=109	=109	=109	=109	=109	=109	=109
4d\	.	8dd\L	.	8ff\L	.	.	.
.	.	16ee\L	.	16gg\L	.	.	.
.	.	16dd\JJ	.	16ff\JJ	.	.	.
!	!	!LO:LB:g=original	!	!	!	!	!
!	!	!LO:TX:a:t=P:w źródle tekst muzyczny całej grupy nutowej słabo widoczny:problem	!	!	!	!	!
4G\	.	8cc/L	.	8ee\L	.	.	.
.	.	8b/J	.	8dd\J	.	.	.
8c\L	.	8.cc/L	.	8.ee\L	.	.	.
8B\	.	.	.	.	.	.	.
.	.	16b/K	.	16dd\K	.	.	.
8A\	.	8a/	.	8cc\	.	.	.
8G\J	.	8g/J	.	8b\J	.	.	.
=110	=110	=110	=110	=110	=110	=110	=110
*	*^	*	*	*	*	*	*
!LO:TX:a:t=P:mixed beam:problem	!	!	!	!	!LO:TX:a:t=P:mixed beam:problem	!	!	!
8F\L	.	.	8a/L	.	8a/L	.	1r	.
8D\	.	.	8f/	.	16dd\L	.	.	.
.	.	.	.	.	16ee\JJ	.	.	.
8G\	.	.	8g/	.	8b/L	.	.	.
8GG/J	4	3	8b/J	.	16a/L	.	.	.
.	.	.	.	.	16g/JJ	.	.	.
4C/	.	.	4cc\	.	4cc\	.	.	.
4CC/	.	.	4c/	.	4c/	.	.	.
!LO:TX:a:t=P:w źródle ozdobna kreska taktowa:problem	!	!	!LO:TX:a:t=P:w źródle ozdobna kreska taktowa:problem	!	!LO:TX:a:t=P:w źródle ozdobna kreska taktowa:problem	!	!LO:TX:a:t=P:w źródle ozdobna kreska taktowa:problem	!
*	*v	*v	*	*	*	*	*	*
=111||	=111||	=111||	=111||	=111||	=111||	=111||	=111||
*M3/4	*	*M3/4	*	*M3/4	*	*M3/4	*
!LO:TX:a:Bi:t=Lente	!	!	!	!LO:TX:a:t=P:mixed beam:problem	!	!	!
!	!	!	!	!	!	!LO:N:vis=00	!
!LO:TX:a:t=P:w źródle cyfrowanie pod nutą:problem	!	!	!	!	!	!	!
4AA/	n	8a\L	.	8a/L	.	0.r	.
.	.	16cc\L	.	16ee\L	.	.	.
.	.	16b\JJ	.	16dd\JJ	.	.	.
!	!	!	!	!LO:LB:g=original	!	!	!
4A\	.	8.cc\L	.	8.ee\L	.	.	.
.	.	16dd\K	.	16ff\K	.	.	.
4r	.	8.cc\	.	8.ee\	.	.	.
.	.	16dd\Jk	.	16ff\Jk	.	.	.
=112	=112	=112	=112	=112	=112	=112	=112
*	*	*	*	*Xtuplet	*	*	*
2A\	.	4.cc\	.	4.ee\	.	.	.
!	!	!LO:TX:a:t=P:w źródle ozdobna trójka nad triolą:problem	!	!	!	!	!
!	!	!LO:TUP:a:problem:klamra łukowa	!	!	!	!	!
.	.	24b\LL	.	24dd\LL	.	.	.
.	.	24cc\	.	24ee\	.	.	.
.	.	24b\JJ	.	24dd\JJ	.	.	.
4G#X\	6	8a/L	.	8cc\L	.	.	.
.	.	8g#X/J	.	8b\J	.	.	.
*	*	*	*	*tuplet	*	*	*
=113	=113	=113	=113	=113	=113	=113	=113
*	*^	*	*	*	*	*	*
4A\	.	.	4a/	.	8cc\L	.	.	.
.	.	.	.	.	16b\L	.	.	.
.	.	.	.	.	16cc\JJ	.	.	.
4F\	.	.	8b/L	.	8.dd\L	.	.	.
.	.	.	8a/	.	.	.	.	.
.	.	.	.	.	16cc\K	.	.	.
4D\	6	5	8g#X/	.	8b\	.	.	.
.	.	.	8f#X/J	.	8a\J	.	.	.
!LO:LB:g=original	!	!	!	!	!	!	!	!
*	*v	*v	*	*	*	*	*	*
=114	=114	=114	=114	=114	=114	=114	=114
4E\	#	4g#X/	.	4b\	.	.	.
4F#X\	.	4r	.	4r	.	.	.
4G#X\	.	4r	.	4r	.	.	.
!	!	!LO:LB:g=original	!	!	!	!	!
=115	=115	=115	=115	=115	=115	=115	=115
!	!	!	!	!	!	!LO:N:vis=00	!
2G#X\	.	4g#X/	.	4b\	.	0.r	.
.	.	4cc\	.	4ee\	.	.	.
4E\	7	8b\L	.	8dd\L	.	.	.
.	.	16cc\L	.	16ee\L	.	.	.
.	.	16b\JJ	.	16dd\JJ	.	.	.
=116	=116	=116	=116	=116	=116	=116	=116
2A\	.	4.a/	.	4.cc\	.	.	.
.	.	8g#X/	.	8b\	.	.	.
4AA/	.	4a/	.	16cc\LL	.	.	.
.	.	.	.	16b\J	.	.	.
.	.	.	.	8a\J	.	.	.
=117	=117	=117	=117	=117	=117	=117	=117
*	*	*2\right	*	*	*	*	*
2G\	.	2b\	.	4dd\	.	.	.
.	.	.	.	4gg\	.	.	.
4B\	5	4dd\	.	8ff\L	.	.	.
.	.	.	.	16gg\L	.	.	.
.	.	.	.	16ff\JJ	.	.	.
*	*	*2\left	*	*	*	*	*
=118	=118	=118	=118	=118	=118	=118	=118
4c\	.	4cc\	.	4ee\	.	.	.
4G\	.	4r	.	4r	.	.	.
4C/	.	4r	.	4r	.	.	.
=119	=119	=119	=119	=119	=119	=119	=119
!	!	!	!	!	!	!LO:N:vis=00	!
4c\	.	4cc\	.	8ee\L	.	0.r	.
.	.	.	.	16ff\L	.	.	.
.	.	.	.	16ee\JJ	.	.	.
4G\	.	4b\	.	4dd\	.	.	.
4G\	.	4b\	.	4dd\	.	.	.
=120	=120	=120	=120	=120	=120	=120	=120
4G#X\	.	4b\	.	8dd\L	.	.	.
.	.	.	.	16ee\L	.	.	.
.	.	.	.	16dd\JJ	.	.	.
4A\	.	4a/	.	4cc\	.	.	.
4E\	#	4g#X/	.	4b\	.	.	.
=121	=121	=121	=121	=121	=121	=121	=121
*	*^	*	*	*	*	*	*
4A\	.	.	4a/	.	8cc\L	.	.	.
.	.	.	.	.	16b\L	.	.	.
.	.	.	.	.	16cc\JJ	.	.	.
4Fn\	6	5	8.b/L	.	8.dd\L	.	.	.
.	.	.	16a/K	.	16cc\K	.	.	.
!LO:SIC:s=4E:v	!	!	!	!	!	!	!	!
4F\	4	3	8.g#X/	.	8b\	.	.	.
.	.	.	.	.	8a\J	.	.	.
.	.	.	16f#X/Jk	.	.	.	.	.
!	!	!	!	!	!LO:LB:g=original	!	!	!
*	*v	*v	*	*	*	*	*	*
=122	=122	=122	=122	=122	=122	=122	=122
!	!	!	!	!LO:SIC:s=4g#:v	!	!	!
4E\	#	4g#X/	.	4a\	.	.	.
4F#X\	.	4r	.	4r	.	.	.
4G#X\	6	4r	.	4r	.	.	.
=123	=123	=123	=123	=123	=123	=123	=123
*	*^	*	*	*	*	*	*
!	!	!	!	!	!	!	!LO:N:vis=00	!
2A\	.	.	8a/L	.	8.cc\L	.	0.r	.
.	.	.	8g#X/	.	.	.	.	.
.	.	.	.	.	16b\K	.	.	.
.	.	.	8a/	.	8cc\	.	.	.
.	.	.	8b/	.	8dd\	.	.	.
4G#X\	6	5	8cc/	.	8ee\	.	.	.
.	.	.	8b/J	.	8dd\J	.	.	.
*	*v	*v	*	*	*	*	*	*
=124	=124	=124	=124	=124	=124	=124	=124
2A\	.	8a/L	.	8.cc\L	.	.	.
.	.	8g#X/J	.	.	.	.	.
.	.	.	.	16b\K	.	.	.
!	!	!LO:PB:g=original	!	!	!	!	!
.	.	8a/L	.	8cc\	.	.	.
.	.	8b/	.	8dd\J	.	.	.
!LO:LB:g=original	!	!	!	!	!	!	!
4AA/	.	8cc/	.	4ee\	.	.	.
.	.	8a/J	.	.	.	.	.
=125	=125	=125	=125	=125	=125	=125	=125
4F\	.	4a/	.	8ff\L	.	.	.
.	.	.	.	8a\J	.	.	.
4E\	6	4e/	.	8g#X/L	.	.	.
.	.	.	.	16f#X/L	.	.	.
.	.	.	.	16e/JJ	.	.	.
4G#X\	6	4g#X/	.	8g#X/L	.	.	.
.	.	.	.	16f#X/L	.	.	.
.	.	.	.	16e/JJ	.	.	.
=126	=126	=126	=126	=126	=126	=126	=126
4A\	.	4a/	.	4a/	.	.	.
8E\L	#	4r	.	4r	.	.	.
8D\	.	.	.	.	.	.	.
8C\	.	4r	.	4r	.	.	.
8BB\J	.	.	.	.	.	.	.
=127	=127	=127	=127	=127	=127	=127	=127
!	!	!LO:N:vis=00	!	!LO:N:vis=00	!	!	!
4AA/	.	0.r	.	0.r	.	4ee\	Jam
4A\	.	.	.	.	.	4a\	e-
4E\	#	.	.	.	.	4g#X\	-nim
=128	=128	=128	=128	=128	=128	=128	=128
2AA/	.	.	.	.	.	2a\	hy-
4A\	.	.	.	.	.	4ff\	-ems
=129	=129	=129	=129	=129	=129	=129	=129
*	*^	*	*	*	*	*	*
4c\	.	.	.	.	.	.	8ee\	tran-
.	.	.	.	.	.	.	16ff\LL	-si-
.	.	.	.	.	.	.	16gg\JJ	.
!	!	!	!	!	!	!	!LO:LB:g=original	!
2G\	4	3	.	.	.	.	2dd\	-it
*	*v	*v	*	*	*	*	*	*
=130	=130	=130	=130	=130	=130	=130	=130
*	*	*	*	*	*	*Xtuplet	*
4GG/	.	.	.	.	.	8dd\	im-
.	.	.	.	.	.	8dd\	-ber
4G\	.	.	.	.	.	8dd\	a-
.	.	.	.	.	.	16ff\LL	-bi-
.	.	.	.	.	.	16gg\JJ	it
8c\L	.	.	.	.	.	8ee\	et
8B\J	.	.	.	.	.	24dd\LL	re-
.	.	.	.	.	.	24ee\	.
.	.	.	.	.	.	24dd\JJ	.
*	*	*	*	*	*	*tuplet	*
=131	=131	=131	=131	=131	=131	=131	=131
!	!	!LO:N:vis=00	!	!LO:N:vis=00	!	!	!
4A\	.	0.r	.	0.r	.	4cc\	-ce-
4AA/	.	.	.	.	.	4a\	-ſsit
4E\	#	.	.	.	.	4e/	re-
=132	=132	=132	=132	=132	=132	=132	=132
4A\	.	.	.	.	.	4.a\	-ce-
4AA/	.	.	.	.	.	.	.
.	.	.	.	.	.	(>16b\LL	.
.	.	.	.	.	.	16cc\JJ)	.
4E\	#	.	.	.	.	4b\	-ſsit
=133	=133	=133	=133	=133	=133	=133	=133
4A\	.	.	.	.	.	8cc\L	re-
.	.	.	.	.	.	8b\	.
4AA/	.	.	.	.	.	8cc\	.
.	.	.	.	.	.	8ee\	.
8r	.	.	.	.	.	8dd\	.
8A\	.	.	.	.	.	8cc\J	.
=134	=134	=134	=134	=134	=134	=134	=134
4G\	.	.	.	.	.	8dd\L	.
.	.	.	.	.	.	8cc\	.
4GG/	.	.	.	.	.	8dd\	.
.	.	.	.	.	.	8ff\	.
8r	.	.	.	.	.	8ee\	.
8G\	.	.	.	.	.	8dd\J	.
!O:LB:g=original	!	!	!	!	!	!LO:LB:g=original	!
=135	=135	=135	=135	=135	=135	=135	=135
!	!	!LO:N:vis=00	!	!LO:N:vis=00	!	!	!
2C/	.	0.r	.	0.r	.	8ee\	-ce-
.	.	.	.	.	.	8ee\	-ſsit
.	.	.	.	.	.	8ee\L	Flo-
.	.	.	.	.	.	16ff\L	.
.	.	.	.	.	.	16gg\JJ	.
4G\	.	.	.	.	.	4dd\	-res
=136	=136	=136	=136	=136	=136	=136	=136
*	*^	*	*	*	*	*	*
4c\	.	.	.	.	.	.	4ee\	a-
4A\	.	.	.	.	.	.	4cc\	-ppa-
4G#X\	6	5	.	.	.	.	4b\	-ru-
*	*v	*v	*	*	*	*	*	*
=137	=137	=137	=137	=137	=137	=137	=137
4A\	.	.	.	.	.	4cc\	-e-
4E\	.	.	.	.	.	4b\	-runt
4EE/	#	.	.	.	.	4b\	in
=138	=138	=138	=138	=138	=138	=138	=138
*	*^	*	*	*	*	*	*
4F\	.	.	.	.	.	.	8dd\	ter-
.	.	.	.	.	.	.	8ee\	-ra
4E\	#	.	.	.	.	.	4.b\	no-
4EE/	4	3	.	.	.	.	.	.
.	.	.	.	.	.	.	8a\	.
*	*v	*v	*	*	*	*	*	*
=139	=139	=139	=139	=139	=139	=139	=139
2.AA/	.	2.r	.	2.r	.	2.a\	-stra
=140	=140	=140	=140	=140	=140	=140	=140
*	*^	*	*	*	*	*	*
!	!	!	!	!	!	!	!LO:N:vis=00	!
4E\	#	.	4g#X/	.	4b\	.	0.r	.
2G#X\	6	5	4cc\	.	4ee\	.	.	.
.	.	.	4b\	.	8dd\L	.	.	.
.	.	.	.	.	16ee\L	.	.	.
.	.	.	.	.	16dd\JJ	.	.	.
*	*v	*v	*	*	*	*	*	*
=141	=141	=141	=141	=141	=141	=141	=141
4A\	.	4a/	.	4cc\	.	.	.
4E\	#	4g#X/	.	8b\L	.	.	.
.	.	.	.	16cc\L	.	.	.
.	.	.	.	16b\JJ	.	.	.
4AA/	.	4a/	.	4a/	.	.	.
=142	=142	=142	=142	=142	=142	=142	=142
2G\	.	4b/	.	4dd\	.	.	.
.	.	4ee\	.	4gg\	.	.	.
4B\	6	4dd\	.	8ff\L	.	.	.
.	.	.	.	16gg\L	.	.	.
.	.	.	.	16ff\JJ	.	.	.
=143	=143	=143	=143	=143	=143	=143	=143
4c\	.	4cc\	.	4ee\	.	.	.
4G\	.	4r	.	4r	.	.	.
4C/	.	4r	.	4r	.	.	.
=144	=144	=144	=144	=144	=144	=144	=144
!	!	!	!	!	!	!LO:N:vis=00	!
4c\	.	4cc\	.	4ee\	.	0.r	.
4C/	.	8cc\L	.	8ee\L	.	.	.
.	.	16dd\L	.	16ff\L	.	.	.
.	.	16ee\JJ	.	16gg\JJ	.	.	.
8r	.	8dd\L	.	8ff\L	.	.	.
8c\	.	8cc\J	.	8ee\J	.	.	.
!	!	!LO:LB:g=original	!	!LO:LB:g=original	!	!	!
=145	=145	=145	=145	=145	=145	=145	=145
4G\	.	4b\	.	4dd\	.	.	.
4GG/	.	8b\L	.	8dd\L	.	.	.
.	.	16cc\L	.	16ee\L	.	.	.
.	.	16dd\JJ	.	16ff\JJ	.	.	.
!LO:LB:g=original	!	!	!	!	!	!	!
!	!	!	!	!LO:SIC:s=8ee:v	!	!	!
8r	.	8cc\L	.	8dd\L	.	.	.
8G\	.	8b\J	.	8dd\J	.	.	.
=146	=146	=146	=146	=146	=146	=146	=146
4A\	.	8a/L	.	8cc\L	.	.	.
.	.	8g#X/J	.	8b\J	.	.	.
4AA/	.	8a/L	.	8cc\L	.	.	.
.	.	16b/L	.	16dd\L	.	.	.
.	.	16cc/JJ	.	16ee\JJ	.	.	.
8r	.	8b/L	.	8dd\L	.	.	.
8A\	.	8a/J	.	8cc\J	.	.	.
=147	=147	=147	=147	=147	=147	=147	=147
4E\	#	4g#X/	.	4b\	.	.	.
4F\	#	4r	.	4r	.	.	.
4G\	#6	4r	.	4r	.	.	.
=148	=148	=148	=148	=148	=148	=148	=148
!	!	!	!	!	!	!LO:N:vis=00	!
!LO:TX:a:t=P:w źródle cyfrowanie wgląda jakby dotyczyło obydwu dźwięków 4E:problem	!	!	!	!	!	!	!
4E\	.	4g#X/	.	4b\	.	0.r	.
4r	.	4a/	.	4cc\	.	.	.
4E\	#	4g#X/	.	4b\	.	.	.
=149	=149	=149	=149	=149	=149	=149	=149
4c\	.	8cc\L	.	8ee\L	.	.	.
.	.	16dd\L	.	16ff\L	.	.	.
.	.	16cc\JJ	.	16ee\JJ	.	.	.
4Gn\	.	4.b/	.	4.dd\	.	.	.
4r	.	.	.	.	.	.	.
.	.	16a/LL	.	16cc\LL	.	.	.
.	.	16g#X/JJ	.	16b\JJ	.	.	.
=150	=150	=150	=150	=150	=150	=150	=150
4E\	.	4g#X/	.	4b\	.	.	.
4r	.	4a/	.	4cc\	.	.	.
4E\	.	4g#/	.	4b\	.	.	.
=151	=151	=151	=151	=151	=151	=151	=151
4c\	.	8cc\L	.	8ee\L	.	.	.
.	.	16dd\L	.	16ff\L	.	.	.
.	.	16cc\JJ	.	16ee\JJ	.	.	.
4Gn\	.	4.b/	.	4.dd\	.	.	.
4r	.	.	.	.	.	.	.
.	.	16a/LL	.	16cc\LL	.	.	.
.	.	16g#X/JJ	.	16b\JJ	.	.	.
!	!	!LO:LB:g=original	!	!	!	!	!
=152	=152	=152	=152	=152	=152	=152	=152
*	*^	*	*	*	*	*	*
!	!	!	!	!	!	!	!LO:N:vis=0	!
4A\	.	.	4cc\	.	8.aa\L	.	1.r	.
.	.	.	.	.	16gg\K	.	.	.
2D/	6	5	8dd\L	.	8ff\	.	.	.
.	.	.	8cc\J	.	8ee\J	.	.	.
!	!	!	!	!	!LO:TX:a:t=P:w źródle tekst muzyczny całej grupy nutowej słabo widoczny:problem	!	!	!
.	.	.	8b\L	.	8dd\L	.	.	.
.	.	.	16cc\L	.	16ee\L	.	.	.
.	.	.	16b\JJ	.	16dd\JJ	.	.	.
*	*v	*v	*	*	*	*	*	*
=153	=153	=153	=153	=153	=153	=153	=153
!	!	!	!	!LO:TX:a:t=P:w źródle tekst muzyczny całej grupy nutowej słabo widoczny:problem	!	!	!
!	!	!	!	!LO:SIC:s=8cc:v	!	!	!
4E\	.	8a/L	.	8bL	.	.	.
.	.	8g#X/J	.	16ccL	.	.	.
.	.	.	.	16bJJ	.	.	.
4A\	.	4a/	.	4a/	.	.	.
4AA/	.	4A/	.	4A/	.	.	.
=154	=154	=154	=154	=154	=154	=154	=154
!	!	!LO:N:vis=00	!	!LO:N:vis=00	!	!	!
2E\	.	0.r	.	0.r	.	4b\	tem-
.	.	.	.	.	.	4.dd\	.
4G#X\	.	.	.	.	.	.	.
.	.	.	.	.	.	16ee\LL	-pus
.	.	.	.	.	.	16dd\JJ	.
!	!	!	!	!	!	!LO:LB:g=original	!
=155	=155	=155	=155	=155	=155	=155	=155
4A\	.	.	.	.	.	8cc\L	tem-
.	.	.	.	.	.	16dd\L	.
.	.	.	.	.	.	16ee\JJ	.
2E\	.	.	.	.	.	2b\	-pus
!LO:LB:g=original	!	!	!	!	!	!	!
=156	=156	=156	=156	=156	=156	=156	=156
4A\	.	.	.	.	.	4cc\	pu-
4G\	.	.	.	.	.	4b\	-ta-
4F\	.	.	.	.	.	4a\	-ti-
=157	=157	=157	=157	=157	=157	=157	=157
2E\	#	.	.	.	.	8g#X\L	-o-
.	.	.	.	.	.	16a\L	.
.	.	.	.	.	.	16b\JJ	.
.	.	.	.	.	.	4e/	-nis
8qqE/	.	.	.	.	.	.	.
4G\	6	.	.	.	.	4b\	ad-
=158	=158	=158	=158	=158	=158	=158	=158
!	!	!LO:N:vis=00	!	!LO:N:vis=00	!	!	!
4A\	.	0.r	.	0.r	.	8cc\L	-ve-
.	.	.	.	.	.	16b\L	.
.	.	.	.	.	.	16a\JJ	.
4Gn\	.	.	.	.	.	4b\	-nit
4c\	.	.	.	.	.	4ee\	vox
=159	=159	=159	=159	=159	=159	=159	=159
4d\	.	.	.	.	.	8ff\	tur-
.	.	.	.	.	.	8ff\	-tu-
4d\	.	.	.	.	.	8ff\L	-ris
.	.	.	.	.	.	16ee\L	.
.	.	.	.	.	.	16ff\JJ	.
4G\	.	.	.	.	.	4dd\	au-
=160	=160	=160	=160	=160	=160	=160	=160
4c\	.	.	.	.	.	8ee\	-di-
.	.	.	.	.	.	8ee\	-ta
!	!	!	!	!	!	!LO:LB:g=original	!
4c\	.	.	.	.	.	8ee\L	eſt
.	.	.	.	.	.	16dd\L	.
.	.	.	.	.	.	16ee\JJ	.
4A\	.	.	.	.	.	4cc\	in
=161	=161	=161	=161	=161	=161	=161	=161
4B\	7	.	.	.	.	8dd\	ter-
.	.	.	.	.	.	8dd\	-ra
4B\	.	.	.	.	.	8dd\L	no-
.	.	.	.	.	.	8ee\J	.
4E\	7 #	.	.	.	.	4b\	-ſtra
=162	=162	=162	=162	=162	=162	=162	=162
!	!	!LO:N:vis=00	!	!LO:N:vis=00	!	!	!
4A\	.	0.r	.	0.r	.	4cc\	in-
4G\	.	.	.	.	.	4b\	-ter-
4F\	.	.	.	.	.	8a\L	-ra
.	.	.	.	.	.	16b\L	.
.	.	.	.	.	.	16cc\JJ	.
=163	=163	=163	=163	=163	=163	=163	=163
2.E\	#	.	.	.	.	4.g#X/	noſ-
.	.	.	.	.	.	8f#X/	.
.	.	.	.	.	.	4e/	-tra
=164	=164	=164	=164	=164	=164	=164	=164
4A\	.	.	.	.	.	8cc\	ter-
.	.	.	.	.	.	8b\	-ra
2D/	.	.	.	.	.	4cc\	noſ-
.	.	.	.	.	.	8b\L	.
.	.	.	.	.	.	8a\J	.
=165	=165	=165	=165	=165	=165	=165	=165
2.AA/	.	.	.	.	.	2.a\	-tra
!	!	!	!	!	!	!LO:LB:g=original	!
=166	=166	=166	=166	=166	=166	=166	=166
!	!	!	!	!	!	!LO:N:vis=00	!
2A\	.	4cc\	.	4ee\	.	0.r	.
.	.	8a/L	.	(>8cc\L	.	.	.
.	.	16g#X/L	.	16b\L)	.	.	.
.	.	16a/JJ	.	16a\JJ	.	.	.
4G#X\	6	(>8dd\L	.	8ff\L	.	.	.
.	.	16ee\L	.	16gg\L	.	.	.
.	.	16dd\JJ)	.	16ff\JJ	.	.	.
!LO:LB:g=original	!	!	!	!LO:LB:g=original	!	!	!
=167	=167	=167	=167	=167	=167	=167	=167
2A\	.	4cc\	.	4ee\	.	.	.
.	.	8a/L	.	8cc\L	.	.	.
.	.	16g#X/L	.	16b\L	.	.	.
.	.	16a/JJ	.	16a\JJ	.	.	.
4G\	6 #	8dd\L	.	8ff\L	.	.	.
.	.	(>16ee\L	.	16gg\L	.	.	.
.	.	16dd\JJ)	.	16ff\JJ	.	.	.
=168	=168	=168	=168	=168	=168	=168	=168
4A\	.	4cc\	.	4ee\	.	.	.
8d\L	.	8.dd\L	.	8ff\L	.	.	.
16d\L	.	.	.	8ee\	.	.	.
16c\JJ	.	16cc\K	.	.	.	.	.
8B\L	.	8b\	.	8dd\	.	.	.
8A\J	.	8a\J	.	8cc\J	.	.	.
=169	=169	=169	=169	=169	=169	=169	=169
4G\	.	4b/	.	4dd\	.	.	.
4A\	.	4r	.	4r	.	.	.
4B\	.	4r	.	4r	.	.	.
=170	=170	=170	=170	=170	=170	=170	=170
!	!	!	!	!	!	!LO:N:vis=00	!
4G\	.	8b\L	.	8dd\L	.	0.r	.
.	.	16cc\L	.	16ee\L	.	.	.
.	.	16dd\JJ	.	16ff\JJ	.	.	.
4c\	.	8.cc\L	.	8.ee\L	.	.	.
.	.	16b\K	.	16dd\K	.	.	.
4G\	.	8.cc\	.	8ee\	.	.	.
.	.	.	.	8cc\J	.	.	.
!	!	!LO:SIC:s=16g:v	!	!	!	!	!
.	.	16g#X\Jk	.	.	.	.	.
!	!	!LO:LB:g=original	!	!	!	!	!
=171	=171	=171	=171	=171	=171	=171	=171
*	*	*	*	*2\right	*	*	*
!	!	!	!	!LO:SIC:s=8cc:v	!	!	!
4A\	.	8a\L	.	8b\L	.	.	.
!	!	!	!	!LO:SIC:s=16dd:v	!	!	!
.	.	16b\L	.	16cc\L	.	.	.
!	!	!	!	!LO:SIC:s=16ee:v	!	!	!
.	.	16cc\JJ	.	16dd\JJ	.	.	.
2E\	#	2g#X/	.	2b\	.	.	.
=172	=172	=172	=172	=172	=172	=172	=172
4A\	.	8a/L	.	8cc\L	.	.	.
.	.	8a/J	.	8cc\J	.	.	.
!	!	!LO:SIC:s=4g:v	!	!	!	!	!
4G\	#n	4g#X/	.	8b\L	.	.	.
.	.	.	.	16cc\L	.	.	.
.	.	.	.	16dd\JJ	.	.	.
4E\	.	4e/	.	4g#X/	.	.	.
=173	=173	=173	=173	=173	=173	=173	=173
4F\	.	8f/L	.	8a/L	.	.	.
.	.	8e/J	.	16b/L	.	.	.
.	.	.	.	16cc/JJ	.	.	.
2E\	.	4e/	.	8.g#X/L	.	.	.
.	.	.	.	16f#X/Jk	.	.	.
.	.	4r	.	4e/	.	.	.
=174	=174	=174	=174	=174	=174	=174	=174
!	!	!	!	!	!	!LO:N:vis=00	!
4d\	.	8dd\L	.	8ff\L	.	0.r	.
.	.	8b\J	.	16ee\L	.	.	.
.	.	.	.	16dd\JJ	.	.	.
4c\	.	8cc\L	.	8ee\L	.	.	.
.	.	8a\J	.	16dd\L	.	.	.
.	.	.	.	16cc\JJ	.	.	.
4G#X\	.	8b/L	.	8dd\L	.	.	.
.	.	8g#X/J	.	16cc\L	.	.	.
.	.	.	.	16b\JJ	.	.	.
=175	=175	=175	=175	=175	=175	=175	=175
8A\L	.	8a/L	.	16cc\LL	.	.	.
.	.	.	.	16b\	.	.	.
8E\J	#	8g#X/J	.	16a\	.	.	.
.	.	.	.	16g#X\JJ	.	.	.
4A\	.	4a/	.	4a/	.	.	.
4AA/	.	4r	.	4r	.	.	.
=176	=176	=176	=176	=176	=176	=176	=176
4A\	.	8cc/L	.	8cc\L	.	.	.
.	.	8a/J	.	8cc\J	.	.	.
4G#X\	6	4g#X/	.	8b\L	.	.	.
.	.	.	.	16cc\L	.	.	.
.	.	.	.	16dd\JJ	.	.	.
4E\	#	4e/	.	4g#X/	.	.	.
!LO:LB:g=original	!	!	!	!LO:LB:g=original	!	!	!
=177	=177	=177	=177	=177	=177	=177	=177
!	!	!	!	!LO:TX:a:t=P:w źródle tekst muzyczny całego taktu ledwo widoczny; wytarte nuty:problem	!	!	!
4F\	.	4f/	.	8a/L	.	.	.
.	.	.	.	16b/L	.	.	.
.	.	.	.	16cc/JJ	.	.	.
2E\	#	4e/	.	8.g/L	.	.	.
.	.	.	.	16f/Jk	.	.	.
.	.	4e/	.	4e/	.	.	.
!LO:TX:a:t=P:w źródle jeden takt skreślony; pomyłka skryptora:problem	!	!	!	!	!	!	!
=178	=178	=178	=178	=178	=178	=178	=178
!	!	!	!	!	!	!LO:N:vis=0	!
4A\	.	8a/L	.	8cc\L	.	1.r	.
.	.	16g#X/L	.	16b\L	.	.	.
.	.	16a/JJ	.	16cc\JJ	.	.	.
!	!	!	!	!LO:TX:a:t=P:mixed beam:problem	!	!	!
!LO:SIC:s=:v	!	!	!	!	!	!	!
4E\	#	8b\L	.	8dd\L	.	.	.
.	.	8e\	.	8g#X/	.	.	.
!LO:SIC:s=:v	!	!	!	!	!	!	!
4G\	6 #	8f#X\	.	8a/	.	.	.
.	.	8g#X\J	.	8b/J	.	.	.
=179	=179	=179	=179	=179	=179	=179	=179
8A\L	.	4a/	.	8cc/L	.	.	.
8E\J	#	.	.	16b/L	.	.	.
.	.	.	.	16a/JJ	.	.	.
4AA/	.	4A/	.	4a/	.	.	.
4r	.	4r	.	4r	.	.	.
!	!	!LO:LB:g=original	!	!	!	!	!
=180	=180	=180	=180	=180	=180	=180	=180
!	!	!LO:N:vis=0	!	!LO:N:vis=0	!	!	!
2E\	#	1.r	.	1.r	.	2b\	fi-
4G#X\	6	.	.	.	.	8b\L	-cus
.	.	.	.	.	.	8ee\J	.
=181	=181	=181	=181	=181	=181	=181	=181
2A\	.	.	.	.	.	4.cc\	pro-
.	.	.	.	.	.	8cc\	-tu-
4E\	#	.	.	.	.	4b\	-lit
=182	=182	=182	=182	=182	=182	=182	=182
4A\	.	2.r	.	2.r	.	4cc\	gro-
4Gn\	.	.	.	.	.	4b\	-ſſo-
4F\	.	.	.	.	.	8a\L	.
.	.	.	.	.	.	16b\L	-s
.	.	.	.	.	.	16a\JJ	.
=183	=183	=183	=183	=183	=183	=183	=183
!	!	!	!	!	!LO:DY:b	!	!
2E\	#	4r	.	4r	p	4g#X/	ſu-
!	!	!	!	!LO:TX:a:t=P:w źródle pauza niewidoczna:problem	!	!	!
.	.	4r	.	4ryy	.	4e/	-os
4r	.	4a/	.	4cc\	.	4ee\	vi-
=184	=184	=184	=184	=184	=184	=184	=184
!LO:N:vis=00	!	!	!	!	!	!	!
0.r	.	4d/	.	4dd\	.	4ff\	-ne-
.	.	4d/	.	4dd\	.	4ff\	-a
.	.	4g/	.	4b\	.	4dd\	flo-
=185	=185	=185	=185	=185	=185	=185	=185
.	.	4c/	.	4cc\	.	4ee\	-ren-
.	.	2f/	.	2a/	.	2cc\	-tes
!	!	!	!	!	!	!LO:PB:g=original	!
=186	=186	=186	=186	=186	=186	=186	=186
.	.	4e/	.	4.b\	.	4.dd\	de-
.	.	2g#X/	.	.	.	.	.
.	.	.	.	8cc\	.	8ee\	-de-
.	.	.	.	4g-X/	.	4b\	-runt
=187	=187	=187	=187	=187	=187	=187	=187
.	.	4a/	.	4a/	.	4cc\	o-
.	.	4e/	.	4g-X/	.	(>8b\L	-do-
.	.	.	.	.	.	16cc\L	.
.	.	.	.	.	.	16b\JJ)	.
.	.	4A/	.	4a/	.	4a\	-r(em)
=188	=188	=188	=188	=188	=188	=188	=188
!LO:N:vis=00	!	!	!	!	!	!	!
0.r	.	4e/	.	4e/	.	4g#X\	ſu-
.	.	4r	.	4f#X/	.	4a\	-um
.	.	4e/	.	4g#X/	.	4b\	o-
=189	=189	=189	=189	=189	=189	=189	=189
.	.	4f/	.	8a/L	.	8cc\L	-do-
.	.	.	.	8g#X/J	.	8b\J	.
.	.	2e/	.	4.a/	.	4.cc\	.
.	.	.	.	16g#X/LL	.	(>16b\LL	-rem
.	.	.	.	16a/JJ	.	16a\JJ)	.
=190	=190	=190	=190	=190	=190	=190	=190
.	.	2a/	.	2a/	.	4a\	ſu-
.	.	.	.	.	.	4a\	-(um)
.	.	4a/	.	4ee\	.	4cc\	vi-
=191	=191	=191	=191	=191	=191	=191	=191
.	.	4d/	.	4ff\	.	4dd\	-ne-
.	.	4d/	.	4ee\	.	4dd\	-a
.	.	4g/	.	4dd\	.	4b\	flo-
!	!	!	!	!LO:LB:g=original	!	!	!
=192	=192	=192	=192	=192	=192	=192	=192
!LO:N:vis=00	!	!	!	!	!	!	!
0.r	.	4c/	.	4ee\	.	4cc\	-ren-
.	.	2f/	.	2cc\	.	2a\	-tes
*	*	*	*	*2\left	*	*	*
!	!	!	!	!	!	!LO:LB:g=original	!
=193	=193	=193	=193	=193	=193	=193	=193
.	.	4e/	.	4.dd\	.	4.b\	de-
.	.	2g#X/	.	.	.	.	.
.	.	.	.	8ee\	.	8cc\	-de-
.	.	.	.	4b\	.	4g#X\	-runt
=194	=194	=194	=194	=194	=194	=194	=194
.	.	4a/	.	4cc\	.	4a\	o-
!	!	!LO:LB:g=original	!	!	!	!	!
.	.	4e/	.	8b\L	.	4g#X\	-do-
.	.	.	.	16cc\L	.	.	.
.	.	.	.	16b\JJ	.	.	.
.	.	4A/	.	4a/	.	4a\	-r(em)
=195	=195	=195	=195	=195	=195	=195	=195
.	.	4e/	.	4g#X/	.	4e/	o-
.	.	4r	.	4a/	.	4f#X/	-do-
.	.	4e/	.	4b/	.	4g#X\	-rem
=196	=196	=196	=196	=196	=196	=196	=196
2.r	.	4f/	.	8cc\L	.	8a\L	ſu-
.	.	.	.	8b\J	.	8g#X\J	.
.	.	2e/	.	4.cc\	.	4.a\	.
.	.	.	.	16b\LL	.	16g#X\LL	.
.	.	.	.	16a\JJ	.	16a\JJ	.
!LO:LB:g=original	!	!	!	!	!	!	!
=197	=197	=197	=197	=197	=197	=197	=197
4r	.	2a/	.	2a/	.	2a\	-um
4r	.	.	.	.	.	.	.
!LO:N:vis=8	!	!	!	!	!	!	!
4A\	.	4cc\	.	4ee\	.	4r	.
=198	=198	=198	=198	=198	=198	=198	=198
!	!	!	!	!	!	!LO:N:vis=00	!
8A\L	.	8.cc\L	.	8.ee\L	.	0.r	.
16A\L	.	.	.	.	.	.	.
16B\JJ	.	16dd\K	.	16ff\K	.	.	.
8c\L	.	8.cc\	.	8.ee\	.	.	.
16B\L	.	.	.	.	.	.	.
16A\JJ	.	16dd\K	.	16ff\K	.	.	.
8A\L	.	8.cc\	.	8.ee\	.	.	.
8E\J	#	.	.	.	.	.	.
.	.	16dd\Jk	.	16ff\Jk	.	.	.
=199	=199	=199	=199	=199	=199	=199	=199
2A\	.	8cc\L	.	8ee\L	.	.	.
.	.	16cc\L	.	16ee\L	.	.	.
.	.	16dd\JJ	.	16ff\JJ	.	.	.
.	.	8.cc/L	.	8.ee\L	.	.	.
.	.	16b/K	.	16dd\K	.	.	.
4G#X\	6	8.a/	.	8cc\	.	.	.
.	.	.	.	8b\J	.	.	.
.	.	16g#X/Jk	.	.	.	.	.
=200	=200	=200	=200	=200	=200	=200	=200
4A\	.	8a\L	.	8a\L	.	.	.
.	.	16dd\L	.	16dd\L	.	.	.
.	.	16cc\JJ	.	16ee\JJ	.	.	.
4d\	.	8dd\L	.	8ff\L	.	.	.
.	.	8dd\	.	8ff\	.	.	.
4D/	.	8dd\	.	8ff\	.	.	.
.	.	8dd\J	.	8ff\J	.	.	.
=201	=201	=201	=201	=201	=201	=201	=201
2c\	.	4.cc\	.	4.ee\	.	.	.
.	.	16b\LL	.	16dd\LL	.	.	.
.	.	16cc\JJ	.	16ee\JJ	.	.	.
4G#X\	6	8a/L	.	8cc\L	.	.	.
.	.	8g#X/J	.	8b\J	.	.	.
=202	=202	=202	=202	=202	=202	=202	=202
!	!	!	!	!	!	!LO:N:vis=00	!
2A\	n	8a/L	.	8cc\L	.	0.r	.
.	.	8g#X/	.	8b\	.	.	.
.	.	8a/	.	8cc\	.	.	.
.	.	8b/J	.	8dd\	.	.	.
!	!	!LO:LB:g=original	!	!	!	!	!
4G#X\	6	8cc/	.	8ee\	.	.	.
!	!	!LO:N:vis=4	!	!	!	!	!
.	.	8b/	.	8dd\J	.	.	.
!	!	!	!	!LO:LB:g=original	!	!	!
=203	=203	=203	=203	=203	=203	=203	=203
2A\	.	8a/L	.	8cc\L	.	.	.
.	.	8g#X/	.	8b\	.	.	.
.	.	8a/	.	8cc\	.	.	.
.	.	8b/J	.	8dd\J	.	.	.
4C/	6	4cc\	.	4ee\	.	.	.
=204	=204	=204	=204	=204	=204	=204	=204
4D\	.	4a/	.	8ff\L	.	.	.
.	.	.	.	8a\J	.	.	.
4E\	#	4e/	.	4.g#X/	.	.	.
4G\	6 #	4g#X/	.	.	.	.	.
.	.	.	.	8g#/	.	.	.
!LO:LB:g=original	!	!	!	!	!	!	!
=205	=205	=205	=205	=205	=205	=205	=205
2A\	.	2.a/	.	2.a	.	.	.
4AA/	.	.	.	.	.	.	.
!LO:TX:a:t=P:w źródle ozdobna kreska taktowa:problem	!	!LO:TX:a:t=P:w źródle ozdobna kreska taktowa:problem	!	!LO:TX:a:t=P:w źródle ozdobna kreska taktowa:problem	!	!LO:TX:a:t=P:w źródle ozdobna kreska taktowa:problem	!
!	!	!	!	!	!	!LO:LB:g=original	!
=||	=||	=||	=||	=||	=||	=||	=||
*M2/2	*	*M2/2	*	*M2/2	*	*M2/2	*
*met(c|)	*	*met(c|)	*	*met(c|)	*	*met(c|)	*
!LO:TX:a:Bi:t=allegro	!	!	!	!LO:TX:b:Bi:t=Alleluia	!	!	!
!LO:TX:b:Bi:t=Alleluia	!	!	!	!LO:TX:a:Bi:t=allegro	!	!	!
4c\	.	8cc\L	.	8cc\L	.	00r	.
.	.	16b\L	.	16b\L	.	.	.
.	.	16a\JJ	.	16a\JJ	.	.	.
4A\	.	8g/L	.	8g/L	.	.	.
.	.	16a/L	.	16a/L	.	.	.
.	.	16b/JJ	.	16b/JJ	.	.	.
4C/	.	8cc\L	.	8cc\L	.	.	.
.	.	16b\L	.	16b\L	.	.	.
.	.	16a\JJ	.	16a\JJ	.	.	.
4G\	.	8g/L	.	8g/L	.	.	.
.	.	16a/L	.	16a/L	.	.	.
.	.	16b/JJ	.	16b/JJ	.	.	.
=206	=206	=206	=206	=206	=206	=206	=206
!LO:TX:a:t=P:mixed beam:problem	!	!LO:TX:a:t=P:mixed beam:problem	!	!LO:TX:a:t=P:mixed beam:problem	!	!	!
8c\L	.	8cc\L	.	8cc\L	.	.	.
8C/J	.	8c/J	.	8c/J	.	.	.
16C\LL	.	16c/LL	.	16c/LL	.	.	.
16D\	.	16d/	.	16d/	.	.	.
16E\	.	16e/	.	16e/	.	.	.
16F\JJ	.	16f/JJ	.	16f/JJ	.	.	.
4G\	.	4g/	.	4g/	.	.	.
4GG/	.	4G/	.	4G/	.	.	.
=207	=207	=207	=207	=207	=207	=207	=207
!LO:TX:a:t=P:mixed beam:problem	!	!	!	!	!	!	!
8C/L	.	8cc\L	.	(>16ee\LL	.	.	.
.	.	.	.	16gg\)	.	.	.
8c\	.	8cc\	.	16ee\	.	.	.
.	.	.	.	16cc\JJ	.	.	.
8C/J	.	8cc\J	.	(>16ee\LL	.	.	.
.	.	.	.	16gg\)	.	.	.
8r	.	8r	.	16ee\	.	.	.
.	.	.	.	16cc\JJ	.	.	.
8d\L	5	8dd\L	.	(>16ff\LL	.	.	.
.	.	.	.	16aa\)	.	.	.
8B\	.	8dd\	.	16ff\	.	.	.
.	.	.	.	(>16dd\JJ	.	.	.
8G\J	.	8dd\J	.	16ff\LL)	.	.	.
.	.	.	.	16aa\	.	.	.
8r	.	8r	.	16ff\	.	.	.
.	.	.	.	16dd\JJ	.	.	.
!	!	!LO:LB:g=original	!	!	!	!	!
=208	=208	=208	=208	=208	=208	=208	=208
4F\	.	8ff\L	.	8aa\L	.	.	.
.	.	8ee\	.	16aa\L	.	.	.
.	.	.	.	16gg\JJ	.	.	.
4D\	.	8dd\	.	(>16ff\LL	.	.	.
.	.	.	.	16gg\	.	.	.
.	.	8cc\J	.	16ff\)	.	.	.
.	.	.	.	16ee\JJ	.	.	.
!	!	!	!	!LO:LB:g=original	!	!	!
8G\L	.	8b\	.	8dd\	.	.	.
8A\	.	8r	.	8r	.	.	.
8B\	6	4r	.	4r	.	.	.
8G\J	.	.	.	.	.	.	.
=209	=209	=209	=209	=209	=209	=209	=209
!	!	!	!	!LO:SIC:s=8cc:v	!	!	!
8c`>\L	.	8cc\L	.	8b\L	.	0r	.
!	!	!	!	!LO:SIC:s=8cc:v	!	!	!
8c`>\J	.	8cc\J	.	8b\J	.	.	.
4d`>\	.	4dd\	.	4dd\	.	.	.
!LO:LB:g=original	!	!	!	!	!	!	!
8B`>\L	.	8b/L	.	8b/L	.	.	.
16A`>\L	.	16a/L	.	16a/L	.	.	.
16G`>\JJ	.	16g/JJ	.	16g/JJ	.	.	.
4c\	.	4cc\	.	4cc\	.	.	.
=210	=210	=210	=210	=210	=210	=210	=210
!LO:TX:a:t=P:mixed beam:problem	!	!	!	!	!	!	!
8F\L	.	16f/LL	.	8f/L	.	.	.
.	.	16e/J	.	.	.	.	.
8D\	.	8d/J	.	16e/L	.	.	.
.	.	.	.	16d/JJ	.	.	.
8G\	.	8g/L	.	8g/L	.	.	.
8GG/J	.	8G/J	.	8G/J	.	.	.
4C/	.	4c/	.	4c/	.	.	.
4r	.	4r	.	4r	.	.	.
=211	=211	=211	=211	=211	=211	=211	=211
4C/	.	1r	.	1r	.	4ee\	Al-
4B\	.	.	.	.	.	8ff\L	-le-
.	.	.	.	.	.	16ee\L	.
.	.	.	.	.	.	16ff\JJ	.
4c\	.	.	.	.	.	8gg\L	-lu-
.	.	.	.	.	.	16ff\L	.
.	.	.	.	.	.	16ee\JJ	.
4G\	.	.	.	.	.	4dd\	-ia
=212	=212	=212	=212	=212	=212	=212	=212
8c\L	.	8cc/L	.	8cc/L	.	8ee\L	A-
8B`>\	.	8b/	.	8b/	.	8dd\J	.
8A`>\	.	8a/	.	8a/	.	8cc\L	-lle-
!	!	!	!LO:DY:b:t=%s	!	!	!	!
8F`>\J	.	8g/J	f	8g/J	.	16dd\L	.
.	.	.	.	.	.	16ee\JJ	.
4G`>\	.	4g/	.	4g/	.	(>8b\L	-llu-
.	.	.	.	.	.	8a\J)	.
4GG`>/	.	4G/	.	4G/	.	4g\	-ia
=213	=213	=213	=213	=213	=213	=213	=213
0r	.	8e/L	.	8e/L	.	16g\LL	al-
.	.	.	.	.	.	16f\	.
.	.	8e/	.	8e/	.	16g\	.
.	.	.	.	.	.	16a\JJ	.
.	.	8e/J	.	8e/J	.	16g\LL	.
.	.	.	.	.	.	16cc\	.
.	.	8r	.	8r	.	16b\	.
.	.	.	.	.	.	16cc\JJ	.
.	.	8f/L	.	8f/L	.	16a\LL	.
.	.	.	.	.	.	16g\	.
.	.	8f/	.	8f/	.	16a\	.
.	.	.	.	.	.	16b\JJ	.
.	.	8f/J	.	8f/J	.	16a\LL	.
.	.	.	.	.	.	16dd\	.
.	.	8r	.	8r	.	16cc\	.
.	.	.	.	.	.	16dd\JJ	.
!	!	!	!	!	!	!LO:LB:g=original	!
=214	=214	=214	=214	=214	=214	=214	=214
.	.	8g/L	.	8g/L	.	16b\LL	.
.	.	.	.	.	.	16a\	.
.	.	8g/	.	8g/	.	16b\	.
.	.	.	.	.	.	16cc\JJ	.
.	.	8g/J	.	8g/J	.	16b\LL	.
.	.	.	.	.	.	16ee\	.
.	.	8r	.	8r	.	16dd\	.
.	.	.	.	.	.	16ee\JJ	.
.	.	8a/L	.	8a/L	.	16cc\LL	.
.	.	.	.	.	.	16b\	.
.	.	8a/	.	8a/	.	16cc\	.
.	.	.	.	.	.	16dd\JJ	.
.	.	8a/J	.	8a/J	.	16cc\LL	.
.	.	.	.	.	.	16ff\	.
.	.	8r	.	8r	.	16ee\	.
.	.	.	.	.	.	16ff\JJ	.
!	!	!LO:LB:g=original	!	!	!	!	!
=	=	=	=	=	=	=	=
!	!	!LO:TX:a:t=P:problem:niepotrzebnie powtórzony fragment	!	!	!	!	!
8ryy	.	8r	.	8ryy	.	8ryy	.
!	!	!LO:TX:a:t=P:w źródle dodatkowa kreska taktowa:problem	!	!	!	!	!
1r	.	8b\L	.	8b\L	.	16dd\LL	.
.	.	.	.	.	.	16cc\	.
.	.	8b\	.	8b\	.	16dd\	.
.	.	.	.	.	.	16ee\JJ	.
.	.	8b\J	.	8b\J	.	16dd\LL	.
.	.	.	.	.	.	16gg\	.
.	.	8r	.	8r	.	16ff\	.
.	.	.	.	.	.	16gg\JJ	.
.	.	8cc\L	.	8cc\L	.	16ee\LL	.
.	.	.	.	.	.	16ff\	.
.	.	8b\	.	8b\	.	16dd\	.
.	.	.	.	.	.	16ff\JJ	.
.	.	8cc\	.	8cc\	.	16ee\LL	.
.	.	.	.	.	.	16ff\	.
.	.	8b\J	.	8b\J	.	16dd\	.
.	.	.	.	.	.	16ff\JJ	.
=215	=215	=215	=215	=215	=215	=215	=215
16c`>\LL	.	16cc/LL	.	16cc/LL	.	16ee\LL	.
16B`>\	.	16b/	.	16b/	.	16dd\	.
16A`>\	.	16a/	.	16a/	.	16cc\	.
16F`>\JJ	.	16f/JJ	.	16f/JJ	.	16dd\JJ	.
!	!	!	!	!	!	!LO:LB:g=original	!
8G`>\L	.	8g/L	.	8g/L	.	8.b\	-le-
8B`>\J	.	8b/J	.	8b/J	.	.	.
.	.	.	.	.	.	16b\	-lu-
4c`>\	.	4cc\	.	4cc\	.	4cc\	-ja
4C`>/	.	4c/	.	4c/	.	4r	.
!	!	!	!	!LO:PB:g=original	!	!	!
=216	=216	=216	=216	=216	=216	=216	=216
8C/L	.	8ee\L	.	(>16gg\LL	.	00r	.
.	.	.	.	16cc\	.	.	.
8C/	.	8ee\	.	16cc\	.	.	.
.	.	.	.	16gg\JJ)	.	.	.
8C/J	.	8ee\	.	(>16gg\LL	.	.	.
.	.	.	.	16cc\	.	.	.
8r	.	8ee\J	.	16cc\	.	.	.
.	.	.	.	16gg\JJ)	.	.	.
!LO:LB:g=original	!	!	!	!	!	!	!
8F\L	.	8ff\L	.	(>16aa\LL	.	.	.
.	.	.	.	16cc\	.	.	.
8F\	.	8ff\	.	16cc\	.	.	.
.	.	.	.	16aa\JJ)	.	.	.
8F\J	.	8ff\	.	(>16aa\LL	.	.	.
.	.	.	.	16cc\	.	.	.
8r	.	8ff\J	.	16cc\	.	.	.
.	.	.	.	16aa\JJ)	.	.	.
=217	=217	=217	=217	=217	=217	=217	=217
8C/L	.	8ee\L	.	(>16gg\LL	.	.	.
.	.	.	.	16cc\	.	.	.
8C/	.	8ee\	.	16cc\	.	.	.
.	.	.	.	16gg\JJ)	.	.	.
8C/J	.	8ee\	.	(>16gg\LL	.	.	.
.	.	.	.	16cc\	.	.	.
8r	.	8ee\J	.	16cc\	.	.	.
.	.	.	.	16gg\JJ)	.	.	.
8F\L	.	8ff\L	.	(>16aa\LL	.	.	.
.	.	.	.	16cc\	.	.	.
8F\	.	8ff\	.	16cc\	.	.	.
.	.	.	.	16aa\JJ)	.	.	.
8F\J	.	8ff\	.	(>16aa\LL	.	.	.
.	.	.	.	16cc\	.	.	.
8r	.	8ff\J	.	16cc\	.	.	.
.	.	.	.	16aa\JJ)	.	.	.
=218	=218	=218	=218	=218	=218	=218	=218
!LO:TX:a:t=P:problem:pominięty fragment	!	!	!	!	!	!	!
1ryy	.	8ff#X\L	.	16aa\LL	.	.	.
.	.	.	.	16dd\	.	.	.
.	.	8ff#\	.	16aa\	.	.	.
.	.	.	.	16dd\JJ	.	.	.
.	.	8ff#\	.	16aa\LL	.	.	.
.	.	.	.	16dd\	.	.	.
.	.	8ff#\J	.	16aa\	.	.	.
.	.	.	.	16dd\JJ	.	.	.
.	.	8gg\L	.	16bb-Xi\LL	.	.	.
.	.	.	.	16dd\	.	.	.
.	.	8gg\	.	16bb-\	.	.	.
.	.	.	.	16dd\JJ	.	.	.
.	.	8gg\	.	16bb-Xi\LL	.	.	.
.	.	.	.	16dd\	.	.	.
.	.	8gg\J	.	16bb-\	.	.	.
.	.	.	.	16dd\JJ	.	.	.
=219	=219	=219	=219	=219	=219	=219	=219
1ryy	.	8ff#X\L	.	16aa\LL	.	.	.
.	.	.	.	16dd\	.	.	.
.	.	8ff#\	.	16aa\	.	.	.
.	.	.	.	16dd\JJ	.	.	.
.	.	8ff#\	.	16aa\LL	.	.	.
.	.	.	.	16dd\	.	.	.
.	.	8ff#\J	.	16aa\	.	.	.
.	.	.	.	16dd\JJ	.	.	.
.	.	8gg\L	.	16bb-Xi\LL	.	.	.
.	.	.	.	16dd\	.	.	.
.	.	8gg\J	.	16bb-\	.	.	.
.	.	.	.	16dd\JJ	.	.	.
!	!	!LO:LB:g=original	!	!	!	!	!
.	.	8gg\L	.	16bb-\LL	.	.	.
.	.	.	.	16dd\	.	.	.
.	.	8gg\J	.	16bb-\	.	.	.
.	.	.	.	16dd\JJ	.	.	.
!	!	!	!	!LO:LB:g=original	!	!	!
=220	=220	=220	=220	=220	=220	=220	=220
1ryy	.	4gg\	.	16bb-Xi\LL	.	00r	.
.	.	.	.	16aa\	.	.	.
.	.	.	.	16gg\	.	.	.
.	.	.	.	16aa\JJ	.	.	.
.	.	8dd\L	.	8.ff#X\L	.	.	.
.	.	8cc\J	.	.	.	.	.
.	.	.	.	16ff#\Jk	.	.	.
.	.	8b\L	.	8.gg\L	.	.	.
.	.	8dd\	.	.	.	.	.
.	.	.	.	16ff#\K	.	.	.
.	.	8cc\	.	8ee\	.	.	.
.	.	8g\J	.	8dd\J	.	.	.
=221	=221	=221	=221	=221	=221	=221	=221
1ryy	.	8ee\L	.	16cc\LL	.	.	.
.	.	.	.	16gg\	.	.	.
.	.	8ee\	.	16cc\	.	.	.
.	.	.	.	16gg\JJ	.	.	.
.	.	8ee\	.	16cc\LL	.	.	.
.	.	.	.	16gg\	.	.	.
.	.	8ee\J	.	16cc\	.	.	.
.	.	.	.	16gg\JJ	.	.	.
.	.	8ff\L	.	16cc\LL	.	.	.
.	.	.	.	16aa\	.	.	.
.	.	8ff\	.	16cc\	.	.	.
.	.	.	.	16aa\JJ	.	.	.
.	.	8ff\	.	16cc\LL	.	.	.
.	.	.	.	16aa\	.	.	.
.	.	8ff\J	.	16cc\	.	.	.
.	.	.	.	16aa\JJ	.	.	.
=222	=222	=222	=222	=222	=222	=222	=222
1ryy	.	8ee\L	.	16cc\LL	.	.	.
.	.	.	.	16gg\	.	.	.
.	.	8ee\	.	16cc\	.	.	.
.	.	.	.	16gg\JJ	.	.	.
.	.	8ee\	.	16cc\LL	.	.	.
.	.	.	.	16gg\	.	.	.
.	.	8ee\J	.	16cc\	.	.	.
.	.	.	.	16gg\JJ	.	.	.
.	.	8ff\L	.	16cc\LL	.	.	.
.	.	.	.	16aa\	.	.	.
.	.	8ff\	.	16cc\	.	.	.
.	.	.	.	16aa\JJ	.	.	.
.	.	8ff\	.	16cc\LL	.	.	.
.	.	.	.	16aa\	.	.	.
.	.	8ff\J	.	16cc\	.	.	.
.	.	.	.	16aa\JJ	.	.	.
=223	=223	=223	=223	=223	=223	=223	=223
*	*	*2\right	*	*	*	*	*
4C	.	8ee\L	.	8gg\L	.	.	.
.	.	16ee\L	.	16gg\L	.	.	.
.	.	16dd\JJ	.	16ff\JJ	.	.	.
!	!	!LO:TX:a:t=P: w źródle cauda nuty 4cc po prawej:problem	!	!	!	!	!
4c	.	4cc\	.	4ee\	.	.	.
4G	.	2b\	.	4dd\	.	.	.
4B	.	.	.	4gg\	.	.	.
*	*	*2\left	*	*	*	*	*
=224	=224	=224	=224	=224	=224	=224	=224
!LO:TX:a:t=P:mixed beam:problem	!	!	!	!	!	!	!
8c\L	.	8cc/L	.	8ee\L	.	2r	.
8C/	.	8a/	.	16dd\L	.	.	.
.	.	.	.	16cc\JJ	.	.	.
8G\	.	8g/	.	8.b\L	.	.	.
8GG/J	.	8b/J	.	.	.	.	.
.	.	.	.	16b\Jk	.	.	.
!	!	!LO:TX:b:Bi:t=Verte Cito.:dur=6wh:ext=s:problem:text with extention lines	!	!	!	!	!
!	!	!	!	!LO:TX:a:t=P:mixed beam:problem	!	!	!
!	!	!LO:TX:a:t=P: w źródle cauda nuty 4cc po prawej:problem	!	!	!	!	!
4C/	.	4cc\	.	8cc\L	.	4r	.
.	.	.	.	8c/J	.	.	.
4G\	.	4r	.	4r	.	4dd\	Al-
=225	=225	=225	=225	=225	=225	=225	=225
4c\	.	00r	.	00r	.	8ee\L	.
.	.	.	.	.	.	16dd\L	.
.	.	.	.	.	.	16ee\JJ	.
4C/	.	.	.	.	.	16ff\LL	.
.	.	.	.	.	.	16ee\	.
.	.	.	.	.	.	16dd\	.
.	.	.	.	.	.	16cc\JJ	.
4G\	.	.	.	.	.	16b\LL	.
.	.	.	.	.	.	16cc\	.
.	.	.	.	.	.	16b\	.
.	.	.	.	.	.	16cc\JJ	.
4B\	.	.	.	.	.	8dd\L	.
.	.	.	.	.	.	8gg\J	.
=226	=226	=226	=226	=226	=226	=226	=226
4c\	.	.	.	.	.	8ee\L	.
.	.	.	.	.	.	16dd\L	.
.	.	.	.	.	.	16ee\JJ	.
4C/	.	.	.	.	.	16ff\LL	.
.	.	.	.	.	.	16ee\	.
.	.	.	.	.	.	16dd\	.
.	.	.	.	.	.	16cc\JJ	.
4G\	.	.	.	.	.	4dd\	.
4F#X\	.	.	.	.	.	8.b\	-le-
.	.	.	.	.	.	16a\	-lu-
!	!	!	!	!	!	!LO:LB:g=original	!
=227	=227	=227	=227	=227	=227	=227	=227
4G\	.	.	.	.	.	8g\	-ia
.	.	.	.	.	.	16cc\LL	Al-
.	.	.	.	.	.	16b\JJ	.
4E\	.	.	.	.	.	16cc\LL	.
.	.	.	.	.	.	16b\	.
.	.	.	.	.	.	16a\	.
.	.	.	.	.	.	16g\JJ	.
!LO:LB:g=original	!	!	!	!	!	!	!
4F\	.	.	.	.	.	8a\L	.
.	.	.	.	.	.	16dd\L	.
.	.	.	.	.	.	16cc\JJ	.
4r	.	.	.	.	.	16dd\LL	.
.	.	.	.	.	.	16cc\	.
.	.	.	.	.	.	16b\	.
.	.	.	.	.	.	16a\JJ	.
=228	=228	=228	=228	=228	=228	=228	=228
4G\	.	.	.	.	.	8b\L	.
.	.	.	.	.	.	16ee\L	.
.	.	.	.	.	.	16dd\JJ	.
4r	.	.	.	.	.	16ee\LL	.
.	.	.	.	.	.	16dd\	.
.	.	.	.	.	.	16cc\	.
.	.	.	.	.	.	16b\JJ	.
4A\	.	.	.	.	.	8cc\L	.
.	.	.	.	.	.	16ff\L	.
.	.	.	.	.	.	16ee\JJ	.
4r	.	.	.	.	.	16ff\LL	.
.	.	.	.	.	.	16ee\	.
.	.	.	.	.	.	16dd\	.
.	.	.	.	.	.	16cc\JJ	.
=229	=229	=229	=229	=229	=229	=229	=229
4B\	.	0r	.	0r	.	8dd\L	.
.	.	.	.	.	.	16gg\L	.
.	.	.	.	.	.	16ff\JJ	.
4r	.	.	.	.	.	16gg\LL	.
.	.	.	.	.	.	16ff\	.
.	.	.	.	.	.	16ee\	.
.	.	.	.	.	.	16dd\JJ	.
8c\L	.	.	.	.	.	16ee\LL	.
.	.	.	.	.	.	16ff\	.
8B\	.	.	.	.	.	16dd\	.
.	.	.	.	.	.	16ee\JJ	.
!	!	!	!	!	!	!LO:LB:g=original	!
8A\	.	.	.	.	.	16cc\LL	.
.	.	.	.	.	.	16dd\	.
8G\J	.	.	.	.	.	16b\	.
.	.	.	.	.	.	16cc\JJ	.
=230	=230	=230	=230	=230	=230	=230	=230
!LO:TX:a:t=P:mixed beam:problem	!	!	!	!	!	!	!
8F\L	.	.	.	.	.	8a\L	.
8D\	.	.	.	.	.	16dd\L	.
.	.	.	.	.	.	16ee\JJ	.
8G\	.	.	.	.	.	8.b\	-le-
8GG/J	.	.	.	.	.	.	.
.	.	.	.	.	.	16b\	-lu-
8C/L	.	.	.	.	.	4cc\	-ia
8D/	.	.	.	.	.	.	.
8E/	.	.	.	.	.	4r	.
8D/J	.	.	.	.	.	.	.
!	!	!LO:PB:g=original	!	!	!	!	!
=231	=231	=231	=231	=231	=231	=231	=231
4BB/	.	8ee\L	.	8gg\L	.	00r	.
.	.	8ff\	.	8ccc\	.	.	.
8C/L	.	8cc\	.	8ee\	.	.	.
8D/J	.	8dd\J	.	8ff\J	.	.	.
4C/	.	8ee\L	.	8gg\L	.	.	.
.	.	8ff\	.	8ccc\	.	.	.
8C/L	.	8cc\	.	8ee\	.	.	.
8D/J	.	8dd\J	.	8ff\J	.	.	.
!	!	!	!	!LO:LB:g=original	!	!	!
=232	=232	=232	=232	=232	=232	=232	=232
4C/	.	4ee\	.	8gg\L	.	.	.
.	.	.	.	16ccc\L	.	.	.
.	.	.	.	16gg\JJ	.	.	.
8F\L	.	4ee\	.	8aa\L	.	.	.
8C\J	.	.	.	8gg\J	.	.	.
4F\	.	4ff\	.	16aa\LL	.	.	.
.	.	.	.	(>16ff\	.	.	.
.	.	.	.	16cc\	.	.	.
.	.	.	.	16ff\JJ)	.	.	.
4C\	.	4ee\	.	8aa\L	.	.	.
.	.	.	.	8gg\J	.	.	.
=233	=233	=233	=233	=233	=233	=233	=233
*	*^	*	*	*	*	*	*
4F\	.	.	4ff\	.	16aa\LL	.	.	.
.	.	.	.	.	16ff\	.	.	.
.	.	.	.	.	16cc\	.	.	.
.	.	.	.	.	16aa\JJ	.	.	.
4C/	.	.	4ee\	.	16gg\LL	.	.	.
.	.	.	.	.	16ee\	.	.	.
.	.	.	.	.	16cc\	.	.	.
.	.	.	.	.	16gg\JJ	.	.	.
4D/	.	.	4dd\	.	16ff\LL	.	.	.
.	.	.	.	.	16dd\	.	.	.
.	.	.	.	.	16b\	.	.	.
.	.	.	.	.	16gg\JJ	.	.	.
4G\	6 4	5 3	8cc\L	.	8ee\L	.	.	.
.	.	.	8b\J	.	8dd\J	.	.	.
!LO:LB:g=original	!	!	!	!	!	!	!	!
*	*v	*v	*	*	*	*	*	*
=234	=234	=234	=234	=234	=234	=234	=234
4c\	.	4cc\	.	(>16ee\LL	.	.	.
.	.	.	.	16cc\	.	.	.
.	.	.	.	16g\	.	.	.
.	.	.	.	16ee\JJ)	.	.	.
4B\	5	4dd\	.	(>16ff\LL	.	.	.
.	.	.	.	16dd\	.	.	.
.	.	.	.	16b\	.	.	.
.	.	.	.	16dd\JJ)	.	.	.
4C/	.	4ee\	.	(>16gg\LL	.	.	.
.	.	.	.	16ee\	.	.	.
.	.	.	.	16cc\	.	.	.
.	.	.	.	16gg\JJ)	.	.	.
4F\	.	4ff\	.	(>16aa\LL	.	.	.
.	.	.	.	16ff\	.	.	.
.	.	.	.	16cc\	.	.	.
.	.	.	.	16aa\JJ)	.	.	.
=235	=235	=235	=235	=235	=235	=235	=235
4C/	.	4ee\	.	(>16gg\LL	.	00r	.
.	.	.	.	16ee\	.	.	.
.	.	.	.	16cc\	.	.	.
.	.	.	.	16gg\JJ)	.	.	.
4F\	.	4ff\	.	(>16aa\LL	.	.	.
.	.	.	.	16ff\	.	.	.
.	.	.	.	16cc\	.	.	.
.	.	.	.	16aa\JJ)	.	.	.
4C/	.	4ee\	.	(>16gg\LL	.	.	.
.	.	.	.	16ee\	.	.	.
.	.	.	.	16cc\	.	.	.
.	.	.	.	16gg\JJ)	.	.	.
4F\	.	4ff\	.	(>16aa\LL	.	.	.
.	.	.	.	16ff\	.	.	.
.	.	.	.	16cc\	.	.	.
.	.	.	.	16aa\JJ)	.	.	.
=236	=236	=236	=236	=236	=236	=236	=236
4D\	#	4ff#X\	.	16aa\LL	.	.	.
.	.	.	.	16ff#X\	.	.	.
.	.	.	.	16dd\	.	.	.
.	.	.	.	16aa\JJ	.	.	.
4G\	.	4gg\	.	16bb\LL	.	.	.
.	.	.	.	16gg\	.	.	.
.	.	.	.	16dd\	.	.	.
.	.	.	.	16bb\JJ	.	.	.
!	!	!	!	!LO:LB:g=original	!	!	!
4D\	#	4ff#X\	.	(>16aa\LL	.	.	.
.	.	.	.	16ff#X\	.	.	.
.	.	.	.	16dd\	.	.	.
.	.	.	.	16aa\JJ)	.	.	.
4G\	.	4gg\	.	(>16bb\LL	.	.	.
.	.	.	.	16gg\	.	.	.
.	.	.	.	16dd\	.	.	.
.	.	.	.	16bb\JJ)	.	.	.
=237	=237	=237	=237	=237	=237	=237	=237
8A\L	.	8aa\L	.	8ccc\L	.	.	.
8G\	.	8gg\	.	8bb\	.	.	.
8F#X\	.	8ff#i\	.	8aa\	.	.	.
8E\J	.	8ee\J	.	8gg\J	.	.	.
8D\L	#	8dd\L	.	16ff#X\LL	.	.	.
.	.	.	.	16gg\	.	.	.
8E\	.	8ee\J	.	16ff#\	.	.	.
.	.	.	.	16gg\JJ	.	.	.
8F#\	6 #	8ff#X\L	.	8aa\L	.	.	.
8D\J	.	8dd\J	.	8dd\J	.	.	.
!	!	!LO:LB:g=original	!	!	!	!	!
=238	=238	=238	=238	=238	=238	=238	=238
4G\	.	4gg\	.	8bb\L	.	.	.
.	.	.	.	16aa\L	.	.	.
.	.	.	.	16gg\JJ	.	.	.
4D\	#	8dd\L	.	8.ff#X\L	.	.	.
.	.	8cc\J	.	.	.	.	.
.	.	.	.	16ff#\Jk	.	.	.
8G\L	.	4b\	.	4gg\	.	.	.
8Fn\	.	.	.	.	.	.	.
8E\	.	4r	.	4r	.	.	.
8D\J	.	.	.	.	.	.	.
=239	=239	=239	=239	=239	=239	=239	=239
4C/	.	4ee\	.	4gg\	.	00r	.
4BB/	.	4b/	.	16dd\LL	.	.	.
.	.	.	.	16ee\	.	.	.
.	.	.	.	16ffn\	.	.	.
.	.	.	.	16gg\JJ	.	.	.
4C/	.	4cc\	.	8ee\L	.	.	.
.	.	.	.	8ee\J	.	.	.
4G\	.	4g/	.	4dd\	.	.	.
=240	=240	=240	=240	=240	=240	=240	=240
4c\	.	8cc\L	.	8.ee\L	.	.	.
.	.	8b\J	.	.	.	.	.
.	.	.	.	16dd\Jk	.	.	.
4A\	.	4a/	.	8cc\L	.	.	.
.	.	.	.	16dd\L	.	.	.
.	.	.	.	16ee\JJ	.	.	.
4G\	.	8g/L	.	8.b/L	.	.	.
.	.	8a/J	.	.	.	.	.
.	.	.	.	16a/Jk	.	.	.
4GG/	.	4b/	.	4g/	.	.	.
!LO:LB:g=original	!	!	!	!	!	!	!
=241	=241	=241	=241	=241	=241	=241	=241
4c\	.	4cc\	.	16cc/LL	.	.	.
.	.	.	.	16g/	.	.	.
.	.	.	.	16e/	.	.	.
.	.	.	.	16cc/JJ	.	.	.
4B\	.	4b\	.	16dd/LL	.	.	.
.	.	.	.	16b/	.	.	.
.	.	.	.	16g/	.	.	.
.	.	.	.	16dd/JJ	.	.	.
4c\	.	4cc\	.	4ee\	.	.	.
4B\	.	4b\	.	8dd\L	.	.	.
.	.	.	.	8gg\J	.	.	.
!	!	!	!	!LO:LB:g=original	!	!	!
=242	=242	=242	=242	=242	=242	=242	=242
8c\L	.	4cc\	.	8ee\L	.	.	.
8E\	.	.	.	16dd\L	.	.	.
.	.	.	.	16cc\JJ	.	.	.
8G\	.	4b\	.	8b/L	.	.	.
8C\J	.	.	.	16a/L	.	.	.
.	.	.	.	16g/JJ	.	.	.
!	!	!LO:TX:a:t=P:mixed beam:problem	!	!LO:TX:a:t=P:mixed beam:problem	!	!	!
4c\	.	8cc\L	.	8cc\L	.	.	.
.	.	8g\	.	8g\	.	.	.
4C/	.	8cc\	.	8cc\	.	.	.
.	.	8c/J	.	8c/J	.	.	.
=243	=243	=243	=243	=243	=243	=243	=243
00r	.	4a/	.	4a/	.	4cc\	Al-
.	.	8g/L	.	8g/L	.	8b-X\L	-le-
.	.	16a/L	.	16a/L	.	16cc\L	.
.	.	16g/JJ	.	16g/JJ	.	16b-\JJ	.
.	.	4f/	.	4f/	.	4a\	-lu-
.	.	4c/	.	4c/	.	4g\	-ia
=244	=244	=244	=244	=244	=244	=244	=244
.	.	4f/	.	4f/	.	16a\LL	al-
.	.	.	.	.	.	16bn\	.
.	.	.	.	.	.	16cc\	.
.	.	.	.	.	.	16dd\JJ	.
.	.	4g/	.	4g/	.	16b\LL	.
.	.	.	.	.	.	16cc\	.
.	.	.	.	.	.	16dd\	.
.	.	.	.	.	.	16ee\JJ	.
.	.	4a/	.	4a/	.	16cc\LL	.
.	.	.	.	.	.	16dd\	.
.	.	.	.	.	.	16ee\	.
.	.	.	.	.	.	16ff\JJ	.
.	.	4b/	.	4b/	.	4dd\	.
!	!	!	!	!	!	!LO:LB:g=original	!
=245	=245	=245	=245	=245	=245	=245	=245
.	.	8cc\L	.	8cc\L	.	16ee\LL	.
.	.	.	.	.	.	16ff\	.
.	.	8b\J	.	8b\	.	16dd\	.
.	.	.	.	.	.	16ff\JJ	.
!	!	!LO:LB:g=original	!	!	!	!	!
.	.	8cc\L	.	8cc\	.	16ee\LL	.
.	.	.	.	.	.	16ff\	.
.	.	8b\J	.	8b\J	.	16dd\	.
.	.	.	.	.	.	16ff\JJ	.
!	!	!LO:TX:a:t=P:mixed beam:problem	!	!LO:TX:a:t=P:mixed beam:problem	!	!	!
.	.	8cc\L	.	8cc\L	.	8.ee\	-le-
.	.	8c/J	.	8d/J	.	.	.
.	.	.	.	.	.	16ee\	-lu-
.	.	16g/LL	.	16g/LL	.	4dd\	-ia
.	.	16a/	.	16a/	.	.	.
.	.	16b/	.	16b/	.	.	.
.	.	16g/JJ	.	16g/JJ	.	.	.
=246	=246	=246	=246	=246	=246	=246	=246
.	.	4cc\	.	4cc\	.	8ee\L	All-
.	.	.	.	.	.	16dd\L	.
.	.	.	.	.	.	16cc\JJ	.
.	.	4b\	.	4b\	.	8.b\	-e-
.	.	.	.	.	.	16b\	-lu-
!	!	!LO:TX:a:t=P:mixed beam:problem	!	!LO:TX:a:t=P:mixed beam:problem	!	!	!
.	.	8cc\L	.	8cc\L	.	4cc\	-ia
.	.	8c/J	.	8c/	.	.	.
.	.	8g/L	.	8g/	.	4g\	A-
.	.	8G/J	.	8G/J	.	.	.
=247	=247	=247	=247	=247	=247	=247	=247
0r	.	4f/	.	4f/	.	16a\LL	-lle-
.	.	.	.	.	.	16b\	.
.	.	.	.	.	.	16cc\	.
.	.	.	.	.	.	16dd\JJ	.
.	.	4g/	.	4g/	.	16b\LL	.
.	.	.	.	.	.	16cc\	.
.	.	.	.	.	.	16dd\	.
.	.	.	.	.	.	16ee\JJ	.
.	.	4a/	.	4a/	.	16cc\LL	.
.	.	.	.	.	.	16dd\	.
.	.	.	.	.	.	16ee\	.
.	.	.	.	.	.	16ff\JJ	.
!	!	!	!	!	!	!LO:LB:g=original	!
.	.	4b/	.	4b/	.	16dd\LL	.
.	.	.	.	.	.	16ee\	.
.	.	.	.	.	.	16ff\	.
.	.	.	.	.	.	16gg\JJ	.
=248	=248	=248	=248	=248	=248	=248	=248
.	.	8cc\L	.	8cc\L	.	16ee\LL	.
.	.	.	.	.	.	16ff\	.
.	.	8b\	.	8b\	.	16dd\	.
.	.	.	.	.	.	16ff\JJ	.
.	.	8cc\	.	8cc\	.	16ee\LL	.
.	.	.	.	.	.	16ff\	.
.	.	8b\J	.	8b\J	.	16dd\	.
.	.	.	.	.	.	16ff\JJ	.
!	!	!LO:TX:a:t=P:mixed beam:problem	!	!LO:TX:a:t=P:mixed beam:problem	!	!	!
.	.	8cc\L	.	8cc\L	.	8.ee\	-le-
.	.	8c/J	.	8c/J	.	.	.
.	.	.	.	.	.	16ee\	-lu-
!	!	!	!	!LO:LB:g=original	!	!	!
.	.	16g/LL	.	16g/LL	.	4dd\	-ia
.	.	(<16a/	.	16a/	.	.	.
.	.	16b/	.	16b/	.	.	.
.	.	16g/JJ)	.	16g/JJ	.	.	.
=249	=249	=249	=249	=249	=249	=249	=249
!	!	!LO:TX:a:t=P:mixed beam:problem	!	!LO:TX:a:t=P:mixed beam:problem	!	!	!
2r	.	8cc\L	.	8cc\L	.	8ee\L	All-
.	.	8c/J	.	8c/J	.	16dd\L	.
.	.	.	.	.	.	16cc\JJ	.
.	.	(16g/LL	.	16g/LL	.	8.b\	-elu-
.	.	16f/	.	16f/	.	.	.
.	.	16e/	.	16e/	.	.	.
.	.	16d/JJ)	.	16d/JJ	.	16b\	.
4r	.	4c/	.	4c/	.	4cc\	-ia
4C/	.	4ee\	.	4gg\	.	4r	.
=250	=250	=250	=250	=250	=250	=250	=250
4F\	.	(>8ff\L	.	(>8aa\L	.	00r	.
.	.	16gg\L)	.	16bb\L	.	.	.
.	.	16ff\JJ	.	16aa\JJ)	.	.	.
4E\	6	8ee\L	.	(>8gg\L	.	.	.
.	.	16ff\L	.	16aa\L	.	.	.
.	.	16ee\JJ	.	16gg\JJ)	.	.	.
!	!	!LO:LB:g=original	!	!	!	!	!
4F\	.	8ff\L	.	(>8aa\L	.	.	.
.	.	16ff\L	.	16aa\L	.	.	.
.	.	16gg\JJ	.	16bb\JJ)	.	.	.
4C\	.	4cc\	.	4ee\	.	.	.
=251	=251	=251	=251	=251	=251	=251	=251
4F\	.	(>8ff\L	.	(>8aa\L	.	.	.
.	.	16gg\L	.	16bb\L	.	.	.
.	.	16ff\JJ)	.	16aa\JJ)	.	.	.
4E\	.	(>8ee\L	.	(>8gg\L	.	.	.
.	.	16ff\L	.	16aa\L	.	.	.
.	.	16ee\JJ)	.	16gg\JJ)	.	.	.
4F\	.	8ff\L	.	(>8aa\L	.	.	.
.	.	16ff\L	.	16aa\L	.	.	.
.	.	16gg\JJ	.	16bb\JJ)	.	.	.
4C\	.	4cc\	.	4ee\	.	.	.
=252	=252	=252	=252	=252	=252	=252	=252
*	*^	*	*	*	*	*	*
4F\	6 3	4 2	8ff\L	.	(>8aa\L	.	.	.
.	.	.	(>8ee\	.	8gg\)	.	.	.
4C/	5 3	4 2	8ee\	.	(>8gg\	.	.	.
.	.	.	8dd\J)	.	8ff\J)	.	.	.
4D/	2	6	(>8dd\L	.	(>8ff\L	.	.	.
.	.	.	8cc\J	.	8ee\J)	.	.	.
4C/	.	.	4cc\)	.	4ee\	.	.	.
*	*v	*v	*	*	*	*	*	*
=253	=253	=253	=253	=253	=253	=253	=253
8G\L	.	4g/	.	4dd\	.	.	.
8A\	.	.	.	.	.	.	.
8B\	.	4r	.	4r	.	.	.
8G\J	.	.	.	.	.	.	.
4c\	.	8cc/L	.	(>8ee\L	.	.	.
.	.	(<8b/	.	8dd\)	.	.	.
4G\	.	8a/	.	(>8dd\	.	.	.
.	.	8a/J)	.	8cc\J)	.	.	.
!LO:LB:g=original	!	!	!	!	!	!	!
=254	=254	=254	=254	=254	=254	=254	=254
4A\	.	8a/L	.	(>8cc\L	.	00r	.
.	.	8g/J	.	8b\J)	.	.	.
4G\	.	4g/	.	4b\	.	.	.
!	!	!	!	!LO:LB:g=original	!	!	!
4c\	.	8cc/L	.	(>8ee\L	.	.	.
.	.	(<8b/	.	8dd\)	.	.	.
4G\	.	8b/	.	(>8dd\	.	.	.
.	.	8a/J)	.	8cc\J)	.	.	.
=255	=255	=255	=255	=255	=255	=255	=255
4A\	.	(<8a/L	.	(>8cc\L	.	.	.
.	.	8g/J	.	8b\J)	.	.	.
4G\	.	4g/)	.	4b\	.	.	.
4D\	#	(<8f#X/L	.	(<8a/L	.	.	.
.	.	8g/	.	8b/	.	.	.
4r	.	8a/)	.	8cc/	.	.	.
.	.	8g/J	.	8b/J)	.	.	.
!	!	!LO:LB:g=original	!	!	!	!	!
=256	=256	=256	=256	=256	=256	=256	=256
4A\	.	8a/L	.	(>8cc\L	.	.	.
.	.	(<8g/	.	8b\)	.	.	.
4G\	.	8g/	.	(>8b\	.	.	.
.	.	8f#X/J)	.	8a\J)	.	.	.
4D\	.	8f#X/L	.	(>8a\L	.	.	.
.	.	(<8g/	.	8b\	.	.	.
4r	.	8a/	.	8cc\	.	.	.
.	.	8g/J)	.	8b\J)	.	.	.
=257	=257	=257	=257	=257	=257	=257	=257
4A\	.	8a/L	.	(>8cc\L	.	.	.
.	.	(<8g/	.	8b\)	.	.	.
8G\L	.	8g/	.	(>8b\	.	.	.
8D\J	#	8f#X/J)	.	8a\J)	.	.	.
4G\	.	4g/	.	8b/L	.	.	.
.	.	.	.	16a/L	.	.	.
.	.	.	.	16g/JJ	.	.	.
4D\	#	4f#X/	.	4f#X/	.	.	.
=258	=258	=258	=258	=258	=258	=258	=258
8G\L	.	4g/	.	4g/	.	00r	.
8A\	.	.	.	.	.	.	.
8B\	.	4r	.	4r	.	.	.
8G\J	.	.	.	.	.	.	.
4c\	.	4cc\	.	16cc/LL	.	.	.
.	.	.	.	16a/	.	.	.
.	.	.	.	16c/	.	.	.
.	.	.	.	16cc/JJ	.	.	.
4B\	.	4b\	.	16dd/LL	.	.	.
.	.	.	.	16b/	.	.	.
.	.	.	.	16g/	.	.	.
.	.	.	.	16dd/JJ	.	.	.
=259	=259	=259	=259	=259	=259	=259	=259
4c\	.	4cc\	.	16ee\LL	.	.	.
.	.	.	.	16cc\	.	.	.
.	.	.	.	16g\	.	.	.
.	.	.	.	16ee\JJ	.	.	.
!	!	!	!	!LO:TX:a:t=P:mixed beam:problem	!	!	!
4r	.	4dd\	.	16ff\LL	.	.	.
.	.	.	.	16dd\	.	.	.
.	.	.	.	16d/	.	.	.
.	.	.	.	16ff\JJ	.	.	.
8C/	.	8ee\	.	8gg\	.	.	.
!	!	!	!	!LO:TX:a:t=P:źródło nieczytelne; możliwa pauza:problem	!	!	!
8r	.	8r	.	8r	.	.	.
8F\	.	8ff\	.	8aa\	.	.	.
!	!	!	!	!LO:TX:a:t=P:źródło nieczytelne; możliwa pauza:problem	!	!	!
8r	.	8r	.	8r	.	.	.
!	!	!	!	!LO:LB:g=original	!	!	!
=260	=260	=260	=260	=260	=260	=260	=260
*	*^	*	*	*	*	*	*
4c\	.	.	4cc\	.	8ee\L	.	.	.
.	.	.	.	.	16dd\L	.	.	.
.	.	.	.	.	16cc\JJ	.	.	.
4G\	4	3	4b\	.	8b/L	.	.	.
.	.	.	.	.	16a/L	.	.	.
.	.	.	.	.	16g/JJ	.	.	.
!LO:LB:g=original	!	!	!	!	!	!	!	!
!LO:TX:a:t=P:mixed beam:problem	!	!	!LO:TX:a:t=P:mixed beam:problem	!	!LO:TX:a:t=P:mixed beam:problem	!	!	!
8C`>/L	.	.	8c/L	.	8c/L	.	.	.
8c`>\J	.	.	8cc\J	.	8cc\J	.	.	.
8B`>\L	.	.	8b/L	.	8b/L	.	.	.
16A`>\L	.	.	16a/L	.	16a/L	.	.	.
16G`>\JJ	.	.	16g/JJ	.	16g/JJ	.	.	.
*	*v	*v	*	*	*	*	*	*
=261	=261	=261	=261	=261	=261	=261	=261
8c`>\L	.	8cc\L	.	8cc\L	.	.	.
16c`>\L	.	16cc\L	.	16cc\L	.	.	.
16B`>\JJ	.	16b\JJ	.	16b\JJ	.	.	.
!	!	!LO:LB:g=original	!	!	!	!	!
8A`>\L	.	8a/L	.	8a/L	.	.	.
16A`>\L	.	16a/L	.	16a/L	.	.	.
16G`>\JJ	.	16g/JJ	.	16g/JJ	.	.	.
8F`>\L	.	8f/L	.	8f/L	.	.	.
16F`>\L	.	16f/L	.	16f/L	.	.	.
16E`>\JJ	.	16e/JJ	.	16e/JJ	.	.	.
8D`>\L	.	8d/L	.	8d/L	.	.	.
8G`>\J	.	8g/J	.	8g/J	.	.	.
=262	=262	=262	=262	=262	=262	=262	=262
4c\	.	4cc\	.	16cc/LL	.	0r	.
.	.	.	.	16g/	.	.	.
.	.	.	.	16c/	.	.	.
.	.	.	.	16cc/JJ	.	.	.
4B\	.	4b\	.	16dd/LL	.	.	.
.	.	.	.	16b/	.	.	.
.	.	.	.	16g/	.	.	.
.	.	.	.	16dd/JJ	.	.	.
4c\	.	4cc\	.	16ee\LL	.	.	.
.	.	.	.	16cc\	.	.	.
.	.	.	.	16g\	.	.	.
.	.	.	.	16ee\JJ	.	.	.
!LO:TX:a:t=P:mixed beam:problem	!	!	!	!LO:TX:a:t=P:mixed beam:problem	!	!	!
8d\L	.	4dd\	.	16ff\LL	.	.	.
.	.	.	.	16dd\	.	.	.
8D/J	.	.	.	16d/	.	.	.
.	.	.	.	16dd\JJ	.	.	.
=263	=263	=263	=263	=263	=263	=263	=263
!	!	!	!	!	!LO:DY:b:t=%siano.	!	!
1r	.	(>8ee\L	.	8gg\L	p	.	.
.	.	8gg\J)	.	(>8bb-X\)	.	.	.
!	!	!LO:SIC:s=8gg:v	!	!	!	!	!
.	.	(>8aa\L	.	(>8bb-\)	.	.	.
.	.	8ff\J)	.	8aa\J)	.	.	.
.	.	8ff\L	.	(>8aa\L	.	.	.
.	.	(>8ee\	.	8gg\)	.	.	.
.	.	8ee\)	.	(>8gg\	.	.	.
.	.	8dd\J	.	8ff\J)	.	.	.
=264	=264	=264	=264	=264	=264	=264	=264
*	*^	*	*	*	*	*	*
8c\L	.	.	4cc\	.	8ee\L	.	1r	.
16E\L	.	.	.	.	16ff\L	.	.	.
16F\JJ	.	.	.	.	16gg\JJ	.	.	.
!LO:TX:a:t=P:mixed beam:problem	!	!	!	!	!	!	!	!
8G\L	.	.	4g/	.	8g/L	.	.	.
8GG/J	4	3	.	.	8b/J	.	.	.
4C/	.	.	4e/	.	4cc\	.	.	.
4r	.	.	4r	.	4r	.	.	.
!LO:TX:b:Bi:t=Laus Deo	!	!	!	!	!	!	!	!
!LO:TX:a:t=P:w źródle ozdobna kreska taktowa:problem	!	!	!	!	!LO:TX:a:t=P:w źródle ozdobna kreska taktowa:problem	!	!LO:TX:a:t=P:w źródle ozdobna kreska taktowa:problem	!
*	*v	*v	*	*	*	*	*	*
==	==	==	==	==	==	==	==
*-	*-	*-	*-	*-	*-	*-	*-
!!title: @{OTL};
!!!RDF**kern: > = above
!!!RDF**kern: < = below
!!!RDF**dynam: p = "piano", fontstyle="italic"
!!!RDF**dynam: f = "forte", fontstyle="italic"
!!!RDF**kern: i = editorial accidental
!!!EED: Wojciech Jakubiak-Danek
!!!EST: 2020-10-23
!!!URL-scan: http://bc.bdsandomierz.pl/dlibra/publication/1382/edition/1350/content
!!!ONB-nifc:
!!!ENC: Berenika Jozajtis
!!!END: 2020-05-04
